!!!!SEGMENT: pl-wn--mus-iii-601--002-001_janiewicz-feliks--iie-trio-allegro-moderato.krn
!!!cenid: 17xx:2390
!!!COM: Janiewicz, Feliks
!!!COM-rismID: pe30011012
!!!CDT: 1762-1848
!!!CNT: Polish
!!!OPR: IIe Trio
!!!OTL: Allegro moderato
!!!OMV: 001
!!!PDT:
!!!AGN:
!!!YEC: Copyright 2022 Narodowy Instytut Fryderyka Chopina (https://polishscores.org)
!!!YEM: License CC-BY-4.0 (https://creativecommons.org/licenses/by/4.0)
!!!SMS-siglum: PL-Wn
!!!SMS-shelfmark: Mus.III.601
!!!SMS-shelfwork: 002-001 M
!!!SMS-variant:
!!!SMS-altvar:
!!!NIFC-rismSourceID: 990069598
!!!NIFC-rismChildID: 990069598
!!!NIFC-islandoraID: none
!!!URL-pdf-islandora:
!!!URL-scan: https://polona2.pl/item/six-trios-pour-deux-violons-basse,MTAxMDA3MzY2/0/#item @EN{Scan on Polona} @PL{Skany w portalu Polona}
!!!IIIF: https://polona2.pl/iiif/item/MTAxMDA3MzY2/manifest.json
!!!ONB-nifc: UWAGA: źródło zawiera 6 Trio na 2 skrzypiec i wiolonczelę. Violino Primo (od skanu 3), Violino Secondo (od skanu 37), Basso (od skanu 61). Basso to partia wiolonczeli. Części Ie Trio: 1. Allegro moderato, 2. Andante, 3. Pollacca/Rondeau
!!!AIN: 1 cbass 2 violn
!!!key: A
**kern	**dynam	**kern	**dynam	**kern	**dynam
*part3	*	*part2	*	*part1	*
*staff3	*	*staff2	*	*staff1	*
*I"BASSO	*	*I"VIOLINO SECONDO	*	*I"VIOLINO PRIMO	*
*mI"Violoncello	*	*mI"Violino II	*	*mI"Violino I	*
*I'b	*	*I'vl 2	*	*I'vl 1	*
*mI'vlc	*	*	*	*	*
*ICstr	*	*ICstr	*	*ICstr	*
*Icbass	*	*Ivioln	*	*Ivioln	*
*clefF4	*	*clefG2	*	*clefG2	*
*k[f#c#g#]	*	*k[f#c#g#]	*	*k[f#c#g#]	*
*A:	*	*A:	*	*A:	*
*M4/4	*	*M4/4	*	*M4/4	*
*met(c)	*	*met(c)	*	*met(c)	*
=1	=1	=1	=1	=1	=1
!!!OMD:
!!!OMD-mod: Allegro moderato
!!LO:MO:ori
*xywh-#66:589,466,3394,522	*	*xywh-#44:646,502,3378,585	*	*xywh-#10:542,466,3391,499	*
*	*	*	*	*^	*
!LO:TX:a:B:t=All(egr)o Moderato	!LO:DY:b:t=F	!LO:TX:a:B:t=All(egr)o Moderato	!	!LO:TX:a:B:t=Allegro Mod(era)to	!	!LO:DY:b:t=F
[1AA	f	8r	.	[2ee/	2cc#\	f
!	!	!	!LO:DY:b:t=F	!	!	!
.	.	8eL 8c#'/	f	.	.	.
.	.	8e 8c#'/	.	.	.	.
.	.	8eJ 8c#'/	.	.	.	.
.	.	4e 4c#/	.	8ee/L]	8cc#\L	.
.	.	.	.	(8cc#/	8a\	.
.	.	4r	.	8dd/	8b\	.
.	.	.	.	8ff#/J)	8dd\J	.
=2	=2	=2	=2	=2	=2	=2
2AA/_	.	8r	.	(>8ff#/L	8dd\L	.
.	.	8eL 8c#'/	.	8ee/J	8cc#\J	.
.	.	8e 8c#'/	.	2ee/)	2cc#\	.
.	.	8eJ 8c#'/	.	.	.	.
8AA/L]	.	4e 4c#/	.	.	.	.
8A\	.	.	.	.	.	.
8G#\	.	4r	.	4r	4rcyy	.
8A\J	.	.	.	.	.	.
*	*	*	*	*v	*v	*
!!LO:MO:end
!!LO:MO:mod
!! [1AA	f	8r	.	[2ee/ 2cc#\	f
!! .	.	8eL 8c#'/	f	.	.
!! .	.	8e 8c#'/	.	.	.
!! .	.	8eJ 8c#'/	.	.	.
!! .	.	4e 4c#/	.	8ee/L] 8cc#\L	.
!! .	.	.	.	(8cc#/ 8a\	.
!! .	.	4r	.	8dd/ 8b\	.
!! .	.	.	.	8ff#/J) 8dd\J	.
!! =2	=2	=2	=2	=2	=2
!! 2AA/_	.	8r	.	(>8ff#/L 8dd\L	.
!! .	.	8eL 8c#'/	.	8ee/J 8cc#\J	.
!! .	.	8e 8c#'/	.	2ee/) 2cc#\	.
!! .	.	8eJ 8c#'/	.	.	.
!! 8AA/L]	.	4e 4c#/	.	.	.
!! 8A\	.	.	.	.	.
!! 8G#\	.	4r	.	4r 4rcyy	.
!! 8A\J	.	.	.	.	.
!!LO:MO:end
=3	=3	=3	=3	=3	=3
[1AA	.	8r	.	[2ee 2cc#\	.
.	.	8eL 8c#/	.	.	.
.	.	8e 8c#/	.	.	.
.	.	8eJ 8c#/	.	.	.
.	.	4e 4c#/	.	8ee]L 8cc#\	.
.	.	.	.	(8cc# 8a\	.
.	.	4r	.	8dd 8b\	.
.	.	.	.	8ff#J 8dd\)	.
=4	=4	=4	=4	=4	=4
2AA/_	.	8r	.	(8ff#L 8dd\	.
.	.	8eL 8c#/	.	8eeJ 8cc#\)	.
.	.	8e 8c#/	.	2ee 2cc#\	.
.	.	8eJ 8c#/	.	.	.
8AA/L]	.	4e 4c#/	.	.	.
(8A\	.	.	.	.	.
8G#\	.	4r	.	4r	.
8A\J)	.	.	.	.	.
=5	=5	=5	=5	=5	=5
8r	.	[2G#/	p	(2dd 2b\	p
(8E\L	p	.	.	.	.
8D#X\	.	.	.	.	.
8E\J)	.	.	.	.	.
[2EE/	.	8G#/L]	.	8ddL 8b\	.
.	.	(8d/	.	8b 8g#\	.
.	.	8c#/	.	8cc# 8a\	.
.	.	8A/J)	.	8eeJ 8cc#\)	.
!	!	!LO:LB:g=original	!	!	!
=6	=6	=6	=6	=6	=6
*	*	*xywh-#44:638,975,3374,412	*	*	*
!LO:TX:t=P:problem: mixed beam	!	!	!	!	!
8EE/L]	.	[2G#/	.	[2dd 2b\	.
(8E\	.	.	.	.	.
8D#X\	.	.	.	.	.
8E\J)	.	.	.	.	.
[2EE/	.	8G#/L]	.	8dd]L 8b\	.
!	!	!	!	!	!LO:MO:mod=!null:null
!	!	!	!	!	!LO:HP:b:t=cres
.	.	(8d/	.	(8b 8g#\	<
.	.	8c#/	.	8cc# 8a\	.
.	.	8A/J)	.	8eeJ 8cc#\)	.
=7	=7	=7	=7	=7	=7
!LO:TX:t=P:problem: mixed beam	!	!	!	!	!
8EE/L]	.	[2G#/	.	[2dd 2b\	.
(8E\	>	.	.	.	.
8Fn\	.	.	.	.	.
8E\J)	]	.	.	.	.
2EE/	.	8G#/L]	.	8dd]L 8b\	.
.	.	(8d/	.	(8b 8g#\	.
.	.	8c#/	.	12cc# 12a\	.
.	.	.	.	12dd 12b\	.
.	.	8A/J)	.	.	.
.	.	.	.	12eeJ 12cc#\)	.
!	!	!	!	!LO:LB:g=original	!
=8	=8	=8	=8	=8	=8
*	*	*	*	*^	*
*	*	*	*	*xywh-#10:520,849,3419,439	*xywh-#10:520,849,3419,439	*
1E;	>]	4G#;/	.	4.dd 4.b;\	2rcyyyy	.
.	.	4r	.	.	.	.
.	.	.	.	8cc# 8a\	.	.
.	.	.	.	8qqcc#/	8qqa\	.
.	.	2d 2B;/	> ]	2b;/	2g#\	.
*	*	*	*	*v	*v	*
=9	=9	=9	=9	=9	=9
4AA/	p	8r	.	[2ee 2cc#\	p
.	.	(8a/L	p	.	.
4r	.	8g#/	.	.	.
.	.	8a/J)	.	.	.
2r	.	[2A/	.	8ee]L 8cc#\	.
.	.	.	.	(8cc# 8a\	.
.	.	.	.	8dd 8b\	.
.	.	.	.	8ff#J 8dd\)	.
!LO:LB:g=original	!	!	!	!	!
=10	=10	=10	=10	=10	=10
*xywh-#66:567,854,3454,418	*	*	*	*	*
8r	.	4A/]	.	8ff#L 8dd\	.
8AA/L	.	.	.	8eeJ 8cc#\	.
8C#/	.	4r	.	4ee 4cc#\	.
8E/J	.	.	.	.	.
!	!	!	!	!	!LO:MO:mod=!null:null
!	!	!	!	!	!LO:DY:t=rinf
4A\	.	2r	.	16ccc#LL 16aa\	rfz
.	.	.	.	16bb 16gg#\	.
.	.	.	.	16aa 16ff#\	.
.	.	.	.	16gg#JJ 16ee\	.
4r	.	.	.	16bbLL 16gg#\	.
.	.	.	.	16aa 16ff#\	.
.	.	.	.	16gg# 16ee\	.
.	.	.	.	16ff#JJ 16dd\	.
=11	=11	=11	=11	=11	=11
!	!	!	!	!LO:MO:mod=!LO&colon;TX&colon;a&colon;i&colon;t=Dolce	!
!	!	!	!	!LO:TX:b:i:t=dol	!
.	.	.	.	8qqff#/ 8qqdd\	.
*	*	*	*	*^	*
4AA/	.	8r	.	4ee 4cc#\	1rcyyyy	.
.	.	(8a/L	.	.	.	.
4r	.	8g#/	.	4.ee 4.cc#\	.	.
.	.	8a/J)	.	.	.	.
2r	.	[2A/	.	.	.	.
!	!	!	!	!LO:SIC:s=(8cc#L 8a\:v	!	!
.	.	.	.	8cc#L 8a\	.	.
.	.	.	.	8dd 8b\	.	.
!	!	!	!	!LO:SIC:s=8ff#J 8dd\):v	!	!
.	.	.	.	8ff#J 8dd\	.	.
*	*	*	*	*v	*v	*
=12	=12	=12	=12	=12	=12
!	!	!	!	!LO:SIC:s=(8ff#L 8dd\:v	!
8r	.	4A/]	.	8ff#L 8dd\	.
!	!	!	!	!LO:SIC:s=8eeJ 8cc#\):v	!
8AA/L	.	.	.	8eeJ 8cc#\	.
8C#/	.	4r	.	2ee 2cc#\	.
8E/J	.	.	.	.	.
8A\L	.	2r	.	.	.
!	!LO:MO:mod=!null:null	!	!	!	!
!	!LO:HP:b:t=cres	!	!	!	!
8e\	<	.	.	.	.
8c#\	.	.	.	4r	.
8A\J	.	.	.	.	.
=13	=13	=13	=13	=13	=13
!	!LO:DY:b:t=F	!	!	!LO:TX:t=P:problem: tryl zapisany 2x - problem wyświetlania	!LO:DY:b:t=F
4G#\	f	8r	.	2ddT 2bT<\	f
!	!	!	!LO:MO:mod=!null:null	!	!
!	!	!	!LO:DY:t=rinf	!	!
.	.	(16e/LL	rfz	.	.
.	.	16d#X/JJ	.	.	.
4r	.	8e/L)	.	.	.
.	.	8e`/J	.	.	.
2E\	.	8r	.	2ddd 2bb\	.
.	.	(16b/LL	.	.	.
.	.	16a/JJ	.	.	.
.	.	8g#/L)	.	.	.
.	.	8g#`/J	.	.	.
!	!	!LO:LB:g=original	!	!	!
=14	=14	=14	=14	=14	=14
*	*	*	*	*^	*
*	*	*xywh-#44:631,1290,3404,371	*	*	*xywh-#10:520,849,3419,439	*
!	!	!	!	!LO:TX:t=P:problem: tryl zapisany 2x - problem wyświetlania	!	!
8r	.	4a/	.	2ccc# 2aaT\	2rcyyyy	.
(16A\LL	.	.	.	.	.	.
16G#\JJ	.	.	.	.	.	.
8A\L)	.	4r	.	.	.	.
8A\J	.	.	.	.	.	.
8r	.	2r	.	2cc#/	[2a\	.
!LO:SIC:s=(16F#\LL:v	!	!	!	!	!	!
16F#\LL	.	.	.	.	.	.
16E#X\JJ	.	.	.	.	.	.
!LO:SIC:s=8F#\L):v	!	!	!	!	!	!
8F#\L	.	.	.	.	.	.
8En\J	.	.	.	.	.	.
=15	=15	=15	=15	=15	=15	=15
!	!	!	!	!LO:MO:mod=!LO&colon;TX&colon;a&colon;i&colon;t=Dolce	!	!
!	!	!	!	!null	!	!
4D\	.	4.f#/	p	16b/LL	4a\]	.
!	!	!	!	!LO:MO:mod=!null:null	!	!
!	!	!	!	!LO:TX:b:i:t=dol	!	!
.	.	.	.	16cc#/	.	.
.	.	.	.	16dd/	.	.
.	.	.	.	16cc#/JJ	.	.
4r	.	.	.	16b/LL	4rc	.
.	.	.	.	8qqgg#/	.	.
.	.	.	.	16ff#/	.	.
.	.	.	.	8qqee/	.	.
.	.	8f#/	.	16dd/	.	.
.	.	.	.	8qqcc#/	.	.
.	.	.	.	16b/JJ	.	.
4E\	p	8e/L	.	4a/	4c#\	.
.	.	8c#/	.	.	.	.
4E\	.	8B/	.	4g#/	4dT\	.
.	.	8B/J	.	.	.	.
*	*	*	*	*v	*v	*
!	!	!	!	!LO:LB:g=original	!
=16	=16	=16	=16	=16	=16
*	*	*	*	*xywh-#10:526,1084,3401,493	*
4AA/	.	4c#`/	.	8aL 8c#/	.
.	.	.	.	16cc#L 16e/	.
.	.	.	.	16aJJ 16c#/	.
4r	.	4r	.	16cc#LL 16e/	p
.	.	.	.	16a 16c#/	.
.	.	.	.	16cc# 16e/	.
.	.	.	.	16aJJ 16c#/	.
4A\	.	4e 4c#`/	.	16aLL 16c#\	.
.	.	.	.	16cc# 16a\	.
.	.	.	.	16ee 16cc#\	.
.	.	.	.	16cc#JJ 16a\	.
4reeeee	.	4r	.	16eeLL 16cc#\	.
.	.	.	.	16cc# 16a\	.
.	.	.	.	16ee 16cc#\	.
.	.	.	.	16cc#JJ 16a\	.
=17	=17	=17	=17	=17	=17
4AA/	.	1e 1c#	.	(16cc#LL 16a\	.
.	.	.	.	16ee 16cc#\)	.
.	.	.	.	(16aa 16ee\	.
.	.	.	.	16ccc#JJ 16ee\)	.
!	!	!	!	!	!LO:MO:mod=!null:null
!	!	!	!	!	!LO:HP:b:t=cres
4r	.	.	.	(16aaLL 16ee\	<
.	.	.	.	16ee 16cc#\)	.
.	.	.	.	(16cc# 16a\	.
.	.	.	.	16eeJJ 16cc#\)	.
!	!	!	!	!LO:SIC:s=(16cc#LL 16a\:v	!
4A\	.	.	.	16cc#LL 16a\	.
!	!	!	!	!LO:SIC:s=16ee 16cc#\):v	!
.	.	.	.	16ee 16cc#\	.
!	!	!	!	!LO:SIC:s=(16aa 16ee\:v	!
.	.	.	.	16aa 16ee\	.
!	!	!	!	!LO:SIC:s=16ccc#JJ 16ee\):v	!
.	.	.	.	16ccc#JJ 16ee\	.
!	!	!	!	!LO:SIC:s=(16aaLL 16ee\:v	!
4r	.	.	.	16aaLL 16ee\	.
!	!	!	!	!LO:SIC:s=16ee 16cc#\):v	!
.	.	.	.	16ee 16cc#\	.
!	!	!	!	!LO:SIC:s=(16cc# 16a\:v	!
.	.	.	.	16cc# 16a\	.
!	!	!	!	!LO:SIC:s=16eeJJ 16cc#\):v	!
.	.	.	.	16eeJJ 16cc#\	.
!LO:LB:g=original	!	!	!	!	!
=18	=18	=18	=18	=18	=18
*xywh-#66:552,1149,3432,414	*	*	*	*	*
!	!LO:MO:mod=!null:null	!	!LO:MO:mod=!null:null	!	!
!	!LO:DY:t=rinf	!	!LO:DY:t=rinf	!	!
4EE/	rfz	4e 4B/	rfz	8ddL 8b\	.
.	.	.	.	16eeL 16cc#\	.
.	.	.	.	16ddJJ 16b\	.
4r	.	4r	.	16eeLL 16cc#\	.
.	.	.	.	16dd 16b\	.
.	.	.	.	16ee 16cc#\	.
.	.	.	.	16ddJJ 16b\	.
4E\	.	4g# 4B/	.	16ddLL 16b\	f
.	.	.	.	16gg# 16ee\	.
.	.	.	.	16bb 16gg#\	.
.	.	.	.	16gg#JJ 16ee\	.
4r	.	4r	.	16bbLL 16gg#\	.
.	.	.	.	16gg# 16ee\	.
.	.	.	.	16bb 16gg#\	.
.	.	.	.	16gg#JJ 16ee\	.
=19	=19	=19	=19	=19	=19
4EE/	.	1g# 1B	>]	16gg#LL 16ee`\	>
.	.	.	.	(16aa 16ff#\	.
.	.	.	.	16bb 16gg#\)	.
.	.	.	.	(16ccc#JJ 16aa\	.
4r	.	.	.	16dddLL 16bb\)	.
.	.	.	.	(16ccc# 16aa\	.
.	.	.	.	16bb 16gg#\)	.
.	.	.	.	(16aaJJ 16ff#\	.
4E\	.	.	.	16gg#LL 16ee\)	.
.	.	.	.	(16aa 16ff#\	.
.	.	.	.	16bb 16gg#\)	.
.	.	.	.	(16aaJJ 16ff#\	.
4r	.	.	.	16gg#LL 16ee\)	.
.	.	.	.	(16ff# 16dd\	.
.	.	.	.	16ee 16cc#\)	.
.	.	.	.	(16ddJJ 16b\	]
!	!	!	!	!LO:LB:g=original	!
=20	=20	=20	=20	=20	=20
*	*	*	*	*xywh-#10:536,1442,3404,427	*
!	!	!	!	!LO:MO:mod=!LO&colon;TX&colon;a&colon;i&colon;t=Dolce	!
!	!	!	!	!LO:TX:b:i:t=dol	!
4AA/	p	8r	.	[2cc# 2a\)	.
.	.	8e'/L	p	.	.
4r	.	8e'/	.	.	.
.	.	8e'/J	.	.	.
4A\	.	4e/	.	8cc#]L 8a\	.
.	.	.	.	(8ee 8cc#\	.
4r	.	4r	.	8dd#X 8b\	.
.	.	.	.	8cc#J 8a\)	.
=21	=21	=21	=21	=21	=21
4EE/	.	8r	.	8cc#L 8a\	.
.	.	8e/L	.	8bJ 8g#\	.
4r	.	8e/	.	2.b [2.g#/	.
.	.	8e/J	.	.	.
8E\L	.	4e/	.	.	.
8B\	.	.	.	.	.
8G#\	.	4r	.	.	.
8E\J	.	.	.	.	.
=22	=22	=22	=22	=22	=22
4D#X\	.	8r	.	8bL 8g#/]	.
.	.	8B/L	.	8a 8f#/	.
4r	.	8B/	.	8a 8f#/	.
.	.	8B/J	.	8aJ 8f#/	.
4BB/	.	2d#X/	.	8aL 8f#/	.
!	!	!	!	!	!LO:MO:mod=!null:null
!	!	!	!	!	!LO:HP:b:t=cres
.	.	.	.	16bL 16g#/	<
.	.	.	.	16cc#JJ 16a/	.
4r	.	.	.	16cc#LL 16a/	.
.	.	.	.	16b 16g#/	.
.	.	.	.	16b 16g#/	.
.	.	.	.	16aJJ 16f#/	.
=23	=23	=23	=23	=23	=23
4E\	.	8r	.	8aL 8f#/	.
.	.	(16e/LL	.	8g#J 8e/	.
.	.	16g#/JJ	.	.	.
4r	.	8b/L)	.	2.g# 2.e/	.
.	.	8b`/J	.	.	.
8E\L	.	2b\	.	.	.
(16e\L	.	.	.	.	.
16d#X\JJ)	.	.	.	.	.
8c#'\L	.	.	.	.	.
8B'\J	.	.	.	.	.
!	!	!LO:LB:g=original	!	!	!
=24	=24	=24	=24	=24	=24
*	*	*	*	*^	*
*	*	*xywh-#44:627,1527,3378,439	*	*	*xywh-#10:536,1442,3404,427	*
8A'\L	p	8r	.	8f#/L	[1e	p
!	!	!	!LO:DY:t= :mod=%s	!	!	!
!	!	!	!LO:MO:mod=!LO&colon;DY&colon;ed=brack	!	!	!
!	!	!	!null	!	!	!
8B'\	.	8ee\L	p	8g#/	.	.
8c#'\	.	8ee\	.	8a/	.	.
8B'\J	.	8ee\J	.	8g#/J	.	.
8A'\L	.	[2ee\	.	8f#/L	.	.
8c#'\	.	.	.	8a/	.	.
(8c#\	.	.	.	8a/	.	.
8B\J)	.	.	.	8g#/J	.	.
=25	=25	=25	=25	=25	=25	=25
!	!	!LO:TX:t=P:problem:mixed beam	!	!	!	!
8A\L	.	8ee\L]	.	8f#/L	1e_	.
8B\	.	8e/	.	8g#/	.	.
8c#\	.	8ee\	.	8a/	.	.
!	!LO:HP:b:t=cres	!	!	!	!	!
!	!LO:MO:mod=.	!	!	!	!	!
8B\J	<	8ee\J	.	8g#/J	.	.
!	!LO:DY:t= :mod=%s	!	!	!	!	!LO:DY:t= :mod=%s
!	!LO:MO:mod=!LO&colon;DY&colon;ed=	!	!	!	!	!LO:MO:mod=!LO&colon;DY&colon;ed=
!	!null	!	!	!	!	!null
8A\L	<	[2ee\	.	8f#/L	.	<
!	!	!	!	!	!	!LO:HP:b:t=cres
!	!	!	!	!	!	!LO:MO:mod=.
8c#\	.	.	.	8a/	.	<
(8c#\	.	.	.	8a/	.	.
8B\J)	.	.	.	8g#/J	.	.
!LO:LB:g=original	!	!	!	!	!	!
=26	=26	=26	=26	=26	=26	=26
*xywh-#66:563,1456,3432,395	*	*	*	*	*	*
!	!LO:MO:mod=!null:null	!	!LO:MO:mod=!null:null	!	!	!
!	!LO:DY:t=rinf	!LO:TX:t=P:problem:mixed beam	!LO:HP:b:t=cres	!	!	!
8A#X\L	rfz	8ee\L]	<	8f#/L	1e]	.
!	!	!	!	!	!	!LO:MO:mod=!null:null
!	!	!	!	!	!	!LO:DY:t=rinf
8A#\	.	8e/	.	8gn/	.	rfz
8A#\	.	8ee\	.	8g/	.	.
8A#\J	.	8ee\J	.	8g/J	.	.
*tremolo	*	*	*	*	*	*
8A#\L	.	4.ee\	.	8g/L	.	.
8A#\	.	.	.	16f#/L	.	.
.	.	.	.	16g/JJ	.	.
.	.	.	.	8qqa/	.	.
8A#\	.	.	.	8g/L	.	.
8A#\J	.	8cc#\	.	16f#/L	.	.
.	.	.	.	16e/JJ	.	.
*	*	*	*	*v	*v	*
!	!	!	!	!LO:LB:g=original	!
=27	=27	=27	=27	=27	=27
*	*	*	*	*xywh-#10:533,1706,3388,401	*
!	!LO:DY:t= :mod=%s	!	!	!	!
!	!LO:MO:mod=!LO&colon;DY&colon;ed=brack	!	!	!	!
!	!null	!	!LO:DY:b:t=F	!	!LO:DY:b:t=F
8B\L	f	8b/L	f	16d#X/LL	f
.	.	.	.	16B/	.
8B\	.	8f#/	.	16c#/	.
.	.	.	.	16d#/JJ	.
8B\	.	8d#X/	.	16e/LL	.
.	.	.	.	16f#/	.
8B\J	.	8f#/J	.	16g#/	.
.	.	.	.	16a#X/JJ	.
8B\L	.	8d#/L	.	16b\LL	.
.	.	.	.	16cc#\	.
8B\	.	8f#/	.	16dd#X\	.
.	.	.	.	16ee\JJ	.
8B\	.	8d#/	.	16ff#\LL	.
.	.	.	.	16gg#\	.
8B\J	.	8f#/J	.	16aa#X\	.
.	.	.	.	16bb\JJ	.
=28	=28	=28	=28	=28	=28
8B\L	.	8e/L	.	16aa#X\LL	.
.	.	.	.	16eee\	.
8B\	.	8gn/	.	16ccc#\	.
.	.	.	.	16aa#\JJ	.
8B\	.	8e/	.	16ggn\LL	.
.	.	.	.	16ee\	.
8B\	.	8g/J	.	16cc#\	.
.	.	.	.	16a#X\JJ	.
8B\	.	8e/L	.	16gn/LL	.
.	.	.	.	16e/	.
8B\	.	8g/	.	16c#/	.
.	.	.	.	16B/JJ	.
8B\	.	8e/	.	16A#X/LL	.
.	.	.	.	16e/	.
8B\J	.	8g/J	.	16c#/	.
.	.	.	.	16A#/JJ	.
=29	=29	=29	=29	=29	=29
8BB/L	p	8d#X/L	p	8B/L	.
8BB/	.	8f#/	.	16c#/L	.
.	.	.	.	16d#X/JJ	.
8BB/	.	8d#/	.	16e/LL	.
.	.	.	.	16f#/	.
8BB/	.	8f#/J	.	16g#X/	.
.	.	.	.	16a#X/JJ	.
8BB/	.	8d#/L	.	16b\LL	.
.	.	.	.	16cc#\	.
8BB/	.	8f#/	.	16dd#yX\	.
.	.	.	.	16ee\JJ	.
8BB/	.	8d#/	.	16ff#\LL	.
.	.	.	.	16gg#\	.
8BB/J	.	8f#/J	.	16aa#yX\	.
.	.	.	.	16bb\JJ	.
!	!	!LO:LB:g=original	!	!LO:LB:g=original	!
=30	=30	=30	=30	=30	=30
*	*	*xywh-#44:627,1868,3385,416	*	*xywh-#10:545,1941,3391,458	*
8BB/L	.	8e/L	.	16aa#X\LL	.
.	.	.	.	16eee\	.
8BB/	.	8gn/	.	16ccc#\	.
.	.	.	.	16aa#\JJ	.
8BB/	.	8e/	.	16ggn\LL	.
.	.	.	.	16ee\	.
8BB/	.	8g/J	.	16cc#\	.
.	.	.	.	16a#yX\JJ	.
8BB/	.	8e/L	.	16gny/LL	.
.	.	.	.	16e/	.
8BB/	.	8g/	.	16c#/	.
.	.	.	.	16B/JJ	.
8BB/	.	8e/	.	16A#yX/LL	.
.	.	.	.	16e/	.
8BB/J	.	8g/J	.	16c#/	.
.	.	.	.	16A#/JJ	.
*Xtremolo	*	*	*	*	*
=31	=31	=31	=31	=31	=31
4BB/	.	4d#X/	.	16B/LL	.
.	.	.	.	16f#/	.
.	.	.	.	16d#X/	.
.	.	.	.	16B/JJ	.
8r	.	8r	.	16e/LL	.
.	.	.	.	16gn/	.
!	!LO:MO:mod=!null:null	!LO:MO:mod=!null:null	!	!	!
!	!LO:HP:b:t=cres	!LO:TX:b:i:t=rinf	!	!	!
!	!	!	!LO:DY:t= :mod=%s	!	!
!	!	!	!LO:MO:mod=!LO&colon;DY&colon;ed=brack	!	!
!	!	!	!null	!	!
8AA#X/	<	8c#/	<	16f#/	.
.	.	.	.	16e/JJ	.
4BB/	.	4d#/	.	16d#/LL	.
.	.	.	.	16f#/	.
.	.	.	.	16d#/	.
.	.	.	.	16B/JJ	.
8r	.	8r	.	16e/LL	.
.	.	.	.	16g/	.
8AA#/	.	8c#/	.	16f#/	.
.	.	.	.	16e/JJ	.
=32	=32	=32	=32	=32	=32
!	!LO:DY:b:t=F	!	!LO:DY:b:t=F	!	!
8BB/	f	8B`/	f	8d#X/L	.
8r	.	8r	.	24b`/L	.
.	.	.	.	24f#`/	.
.	.	.	.	24d#`/JJ	.
8BB/	.	8d#X`/	.	8B/L	.
!	!	!	!	!LO:MO:mod=*null:null	!
*	*	*	*	*Xtuplet	*
!	!	!	!	!LO:SIC:s=24dd#`/L:v	!
8r	.	8r	.	24dd`/L	.
.	.	.	.	24b`/	.
.	.	.	.	24f#`/JJ	.
8BB/	.	8f#`/	.	8d#\L	.
8r	.	8r	.	24ff#`\L	.
.	.	.	.	24dd#yX`\	.
.	.	.	.	24b`\JJ	.
8BB/	.	8d#`/	.	8f#\L	.
8r	.	8r	.	24bb`\L	.
.	.	.	.	24ff#`\	.
.	.	.	.	24dd#`\JJ	.
=33	=33	=33	=33	=33	=33
8BB/	.	8f#`/	.	8b\L	.
8r	.	8r	.	24ddd#X`\L	.
.	.	.	.	24bb`\	.
.	.	.	.	24ff#`\JJ	.
8B\	.	8f#`/	.	8dd#yX\L	.
8r	.	8r	.	24fff#`\L	.
.	.	.	.	24ddd#`\	.
.	.	.	.	24bb`\JJ	.
8BB/	.	8f# 8d#X`/	.	8ff#`\L	.
8r	.	8r	.	8bbb`\J	.
4r;	.	4r;	.	4r;	.
!	!	!	!	!LO:LB:g=original	!
=34	=34	=34	=34	=34	=34
*	*	*	*	*xywh-#10:561,2318,3366,345	*
!	!	!	!	!LO:MO:mod=!LO&colon;TX&colon;a&colon;i&colon;t=Dolce	!
!	!	!	!	!LO:TX:b:i:t=dol	!
[1E	p	(2B/	p	(16g#/LL	.
.	.	.	.	16a/	.
.	.	.	.	16g#/	.
.	.	.	.	16f#/JJ	.
.	.	.	.	16g#/LL	.
.	.	.	.	16e/	.
.	.	.	.	16a/	.
.	.	.	.	16f#/JJ)	.
.	.	4G#/	.	(4b/	.
.	.	4B/)	.	16a/LL	.
.	.	.	.	16g#/	.
.	.	.	.	16f#/	.
.	.	.	.	16e/JJ)	.
=35	=35	=35	=35	=35	=35
4.E\]	.	4.A/	.	(16cc#\LL	.
.	.	.	.	16dd#X\	.
.	.	.	.	16cc#\	.
.	.	.	.	16b#X\JJ	.
.	.	.	.	16cc#\LL	.
.	.	.	.	16a\	.
8F#\	.	8a/	.	16dd#\	.
.	.	.	.	16bn\JJ	.
8G#\L	.	4g#/	.	4ee\)	.
8B\	.	.	.	.	.
8G#\	.	4r	.	4r	.
8E\J	.	.	.	.	.
!LO:LB:g=original	!	!LO:LB:g=original	!	!	!
=36	=36	=36	=36	=36	=36
*xywh-#66:570,1721,3439,388	*	*xywh-#44:627,2168,3419,412	*	*	*
[1BB	.	4r	.	(16ff#\LL	.
.	.	.	.	16gg#\	.
.	.	.	.	16ff#\	.
.	.	.	.	16ee\JJ	.
.	.	4f# 4B/	.	16dd#X\LL	.
.	.	.	.	16cc#\	.
.	.	.	.	16dd#\	.
.	.	.	.	16b\JJ)	.
.	.	4r	.	(16gg#\LL	.
.	.	.	.	16aa\	.
.	.	.	.	16gg#\	.
.	.	.	.	16ff#\JJ	.
.	.	4e 4B/	.	16gg#\LL	.
.	.	.	.	16ee\	.
.	.	.	.	16bb\	.
.	.	.	.	16gg#\JJ)	.
=37	=37	=37	=37	=37	=37
4BB/]	.	8d#X/L	.	16ff#\LL	.
.	.	.	.	(16aa#X\	.
.	.	8e/	.	16bb\)	.
.	.	.	.	(16gg#\JJ	.
4BB/	.	8d#/	.	16ff#\LL)	.
.	.	.	.	(16aa#\	.
.	.	8e/J	.	(16bb\)	.
.	.	.	.	(16gg#\JJ	.
4BB/	.	4d#/	.	16ff#\LL)	.
.	.	.	.	(16ee\	.
.	.	.	.	16dd#X\)	.
.	.	.	.	(16cc#\JJ	.
4r	.	4r	.	16b\LL)	.
.	.	.	.	(16a\	.
!	!	!	!	!LO:SIC:s=16g#\):v	!
.	.	.	.	16g#\))	.
!	!	!	!	!LO:SIC:s=16f#\JJ):v	!
.	.	.	.	16f#\JJ	.
!	!	!	!	!LO:LB:g=original	!
=38	=38	=38	=38	=38	=38
*	*	*	*	*xywh-#10:526,2570,3419,386	*
[2E\	.	(2B/	.	(16g#/LL	.
.	.	.	.	16a/	.
.	.	.	.	16g#/	.
.	.	.	.	16f#/JJ	.
.	.	.	.	16g#/LL	.
.	.	.	.	16e/	.
.	.	.	.	16a/	.
.	.	.	.	16f#/JJ)	.
4E\]	.	4G#/	.	(4b/	.
4r	.	4B/)	.	16a/LL	.
.	.	.	.	16g#/	.
.	.	.	.	16f#/	.
.	.	.	.	16e/JJ)	.
=39	=39	=39	=39	=39	=39
.	.	.	.	8qqe#X/	.
!	!LO:DY:t= :mod=%s	!	!LO:DY:t= :mod=%s	!	!
!	!LO:MO:mod=!LO&colon;DY&colon;ed=brack	!	!LO:MO:mod=!LO&colon;DY&colon;ed=brack	!	!
!	!	!	!	!LO:MO:mod=!LO&colon;TX&colon;a&colon;i&colon;t=Più lento	!
!	!	!	!	!	!LO:MO:mod=!null:null
!	!null	!	!null	!null	!LO:DY:t=rinf
4E#X;\	rfz	4G#;/	rfz	(16ddn\LL	rfz
.	.	.	.	16cc#\	.
!	!	!	!	!LO:MO:mod=!null:null	!
!	!	!	!	!LO:TX:a:i:t=piu lento	!
.	.	.	.	16b\	.
.	.	.	.	16a\JJ	.
8r	.	8r	.	16g#\LL	.
.	.	.	.	16f#\	.
8E#\	.	(8B/	.	16e#X\	.
.	.	.	.	16dd\JJ)	.
.	.	.	.	8qqdd/	.
!	!	!	!	!LO:SIC:s=4cc#\;:v	!
4F#;\	.	4A;/)	.	4cc#\	.
!	!	!	!	!LO:SIC:s=4r:v	!
4r	.	4r	.	4r;	.
=40	=40	=40	=40	=40	=40
4F#\	.	4A/	.	(16cc#\LL	.
.	.	.	.	16dd\	.
.	.	.	.	16cc#\	.
.	.	.	.	16b#X\JJ	.
4r	.	4r	.	8cc#\L)	.
.	.	.	.	(16aa\L	.
.	.	.	.	16ff#\JJ)	.
4F#\	.	4a/	.	(16cc#\LL	.
.	.	.	.	16dd\	.
.	.	.	.	16cc#\	.
.	.	.	.	16b#\JJ	.
4r	.	4r	.	8cc#\L)	.
.	.	.	.	(16aa\L	.
.	.	.	.	16ff#\JJ)	.
=41	=41	=41	=41	=41	=41
4.F#\	.	4.a/	.	(16cc#\LL	.
.	.	.	.	16ff#\	.
.	.	.	.	16aa\	.
.	.	.	.	16ccc#\JJ	.
.	.	.	.	16bb\LL	.
.	.	.	.	16aa\	.
8A\	.	8cc#\	.	16gg#\	.
.	.	.	.	16ff#\JJ)	.
4B;\	.	4b 4g#;/	.	4ee;\	.
.	.	.	.	16qqdd#/LL	.
.	.	.	.	16qqff#/	.
.	.	.	.	16qqee/JJ	.
8B;\	.	8a 8f#;/	.	8dd#X;\	.
8r	.	8r	.	8r	.
!	!	!	!	!LO:LB:g=original	!
=42	=42	=42	=42	=42	=42
*	*	*	*	*8va	*
*	*	*	*	*^	*
*	*	*	*	*xywh-#10:523,2834,3413,398	*xywh-#10:523,2834,3413,398	*
!LO:MO:mod=!null:null	!	!	!	!	!	!
!LO:TX:a:t=1	!	!	!	!	!	!
1r	.	8gg#'\L	p	[2bb/	2rgyyyy	p
.	.	8gg#'\	.	.	.	.
.	.	8ff#'\	.	.	.	.
.	.	8ff#'\J	.	.	.	.
.	.	8ee#X\L	.	2bb/_	8gg#\L	.
.	.	8ee#\	.	.	8gg#\	.
.	.	8ddn\	.	.	8ff#\	.
.	.	8dd\J	.	.	8ff#\J	.
=43	=43	=43	=43	=43	=43	=43
4r	.	4cc#\	.	4bb/]	4ee#X\	.
!	!	!	!	!	!	!LO:DY:b:t=rF
(4c#\	.	(4e#X/	.	(16bb\LL	4rcyyyy	f
.	.	.	.	16ggg#\)	.	.
.	.	.	.	(16ggg#\	.	.
.	.	.	.	16fff#\JJ)	.	.
4d#X\	.	4f#/	.	(16fff#\LL	2rcyyyy	.
.	.	.	.	16eee#X\)	.	.
.	.	.	.	(16eee#\	.	.
.	.	.	.	16dddn\JJ)	.	.
4e#X\)	.	8g#/L)	.	(16ddd\LL	.	.
.	.	.	.	16ccc#\)	.	.
.	.	[8gg#\J	.	(16ccc#\	.	.
.	.	.	.	16bb\JJ)	.	.
!	!	!LO:LB:g=original	!	!	!	!
=44	=44	=44	=44	=44	=44	=44
*	*	*xywh-#44:619,2454,3381,409	*	*	*	*
4f#\	.	8gg#\L]	.	[2aa/	2rgyyyy	.
.	.	8ff#'\	.	.	.	.
4r	.	8ee'\	.	.	.	.
.	.	8ee'\J	.	.	.	.
2r	.	8dd#X'\L	.	2aa/_	8ff#\L	.
.	.	8dd#'\	.	.	8ff#\	.
.	.	8ccn'\	.	.	8ee\	.
.	.	8cc'\J	.	.	8ee\J	.
=45	=45	=45	=45	=45	=45	=45
4r	.	4b\	.	4aa/]	4dd#X\	.
(4B\	.	(4d#X/	.	(16aa\LL	4rcyyyy	.
.	.	.	.	16fff#\)	.	.
.	.	.	.	(16fff#\	.	.
.	.	.	.	16eee\JJ)	.	.
4c#\	.	4e/	.	(16eee\LL	2rcyyyy	.
.	.	.	.	16ddd#X\)	.	.
.	.	.	.	(16ddd#\	.	.
.	.	.	.	16ccc#\JJ)	.	.
4d#X\	.	8f#/L)	.	(16ccc#\LL	.	.
.	.	.	.	16bb\)	.	.
.	.	[8ff#\J	.	(16bb\	.	.
.	.	.	.	16aa\JJ)	.	.
=46	=46	=46	=46	=46	=46	=46
4e\)	.	8ff#\L]	.	2gg#/	2rgyyyy	.
.	.	8ee'\	.	.	.	.
4r	.	8dd#X'\	.	.	.	.
.	.	8dd#'\J	.	.	.	.
!	!	!	!	!LO:MO:mod=!LO&colon;TX&colon;a&colon;i&colon;t=Lento	!	!
!	!	!	!	!LO:TX:a:i:t=lento	!	!
2r	.	8cc#X'\L	.	2gg#/	8ee\L	.
.	.	8cc#'\	.	.	8ee\	.
.	.	8b'\	.	.	8dd#X\	.
.	.	8b'\J	.	.	8dd#\J	.
*	*	*	*	*v	*v	*
*	*	*	*	*X8va	*
=47	=47	=47	=47	=47	=47
*	*	*	*	*^	*
!	!	!	!LO:DY:t= :mod=%s	!	!	!
!	!	!	!LO:MO:mod=!LO&colon;DY&colon;ed=brack	!LO:MO:mod=!null:null	!	!
!	!	!LO:SIC:s=8cc#'\L:v	!null	!LO:TX:a:i:t=loco	!	!
8A'\L	p	8cc#\L	p	16ff#/	16cc#\LL	.
.	.	.	.	16raayyyy	16ee#X\	.
!	!	!LO:SIC:s=8ddn'\:v	!	!	!	!
8B'\	.	8ddn\	.	8raayyyy	(16gg#\	.
.	.	.	.	.	16ee#\JJ)	.
!	!	!LO:SIC:s=8cc#'\:v	!	!	!	!
8A'\	.	8cc#\	.	4raayyyy	(16ff#\LL	p
.	.	.	.	.	16ee#\)	.
!	!	!LO:SIC:s=8dd'\J:v	!	!	!	!
8B'\J	.	8dd\J	.	.	(16gg#\	.
.	.	.	.	.	16ee#\JJ)	.
*	*	*	*	*xywh-#10:523,3116,3419,405	*xywh-#10:523,3116,3419,405	*
!	!	!LO:SIC:s=8cc#'\L:v	!	!	!LO:LB:g=original	!
8A'\L	.	8cc#\L	.	2raayyyy	(16ff#\LL	.
.	.	.	.	.	16ee#\)	.
!	!	!LO:SIC:s=8dd'\:v	!	!	!	!
8B'\	.	8dd\	.	.	(16gg#\	.
.	.	.	.	.	16ee#\JJ)	.
!	!	!LO:SIC:s=8cc#'\:v	!	!	!	!
8A'\	.	8cc#\	.	.	(16ff#\LL	.
.	.	.	.	.	16ee#\)	.
!	!	!LO:SIC:s=8dd'\J:v	!	!	!	!
8B'\J	.	8dd\J	.	.	(16gg#\	.
.	.	.	.	.	16ee#\JJ)	.
!LO:LB:g=original	!	!	!	!	!	!
=48	=48	=48	=48	=48	=48	=48
*xywh-#66:574,2046,3413,384	*	*	*	*	*	*
!	!	!	!LO:DY:t= :mod=%s	!	!	!
!	!	!	!LO:MO:mod=!LO&colon;DY&colon;ed=brack	!	!	!
!	!	!LO:SIC:s=8cc#'\L:v	!null	!	!	!
8A'\L	pp	8cc#\L	pp	8ff#/L	8rc	pp
.	.	.	.	8qqbb/	.	.
!	!	!	!LO:MO:mod=.	!	!	!
8F#'\	.	8a'\	p	8aa/	8cc#\L	.
8G#'\	.	8b'\	.	8gg#/	8b\	.
8A'\J	.	8cc#'\J	.	8ff#/J	8a\J	.
!	!	!LO:SIC:s=8b'\:v	!	!	!	!
8B'\	.	8b\	.	8ee/	8g#\	.
8r	.	8r	.	8raa	8rc	.
!	!	!LO:SIC:s=8a'/:v	!	!	!	!
8BB'/	.	8a/	.	8dd#X/	8f#\	.
8r	.	8r	.	8raa	8rc	.
*	*	*	*	*v	*v	*
!	!	!LO:LB:g=original	!	!	!
=49	=49	=49	=49	=49	=49
*	*	*xywh-#44:616,2765,3393,424	*	*	*
!	!LO:DY:b:t=F	!	!	!	!LO:DY:b:t=F
4E\	f	4r	.	24e\LL	f
.	.	.	.	24ee\	.
.	.	.	.	24gg#\	.
.	.	.	.	24bb\	.
.	.	.	.	24gg#\	.
.	.	.	.	24ee\JJ	.
!	!	!	!LO:DY:b:t=F	!LO:TX:t=P:problem:mixed beam	!
4r	.	4g# 4B/	f	24e/LL	.
.	.	.	.	24ee\	.
.	.	.	.	24gg#\	.
.	.	.	.	24bb\	.
.	.	.	.	24gg#\	.
.	.	.	.	24ee\JJ	.
4E\	.	4r	.	24eee\LL	.
.	.	.	.	24ee\	.
.	.	.	.	24ff#\	.
.	.	.	.	24gg#\	.
.	.	.	.	24ff#\	.
.	.	.	.	24ee\JJ	.
!	!	!	!	!LO:TX:t=P:problem:mixed beam	!
4r	.	4g# 4B/	.	24e/LL	.
.	.	.	.	24ee\	.
.	.	.	.	24gg#\	.
.	.	.	.	24bb\	.
.	.	.	.	24gg#\	.
.	.	.	.	24ee\JJ	.
=50	=50	=50	=50	=50	=50
4BB/	.	4r	.	24B/LL	.
.	.	.	.	24b/	.
.	.	.	.	24dd#X/	.
.	.	.	.	24ff#/	.
.	.	.	.	24dd#/	.
.	.	.	.	24b/JJ	.
4r	.	4f# 4d#X/	.	24B/LL	.
.	.	.	.	24b/	.
.	.	.	.	24dd#/	.
.	.	.	.	24ff#/	.
.	.	.	.	24dd#/	.
.	.	.	.	24b/JJ	.
4BB/	.	4r	.	24bb\LL	.
.	.	.	.	24b\	.
.	.	.	.	24cc#\	.
.	.	.	.	24dd#X\	.
.	.	.	.	24cc#\	.
.	.	.	.	24b\JJ	.
4r	.	4f# 4d#/	.	24B/LL	.
.	.	.	.	24b/	.
.	.	.	.	24dd#/	.
.	.	.	.	24ff#/	.
.	.	.	.	24dd#/	.
.	.	.	.	24b/JJ	.
!	!	!	!	!LO:LB:g=original	!
=51	=51	=51	=51	=51	=51
*	*	*	*	*xywh-#10:530,3414,3388,376	*
4E\	p	4r	.	24e\LL	p
.	.	.	.	24ee\	.
.	.	.	.	24gg#\	.
.	.	.	.	24bb\	.
.	.	.	.	24gg#\	.
.	.	.	.	24ee\JJ	.
4r	.	4g# 4B/	p	24e\LL	.
.	.	.	.	24ee\	.
.	.	.	.	24gg#\	.
.	.	.	.	24bb\	.
.	.	.	.	24gg#\	.
.	.	.	.	24ee\JJ	.
4E\	.	4r	.	24eee\LL	.
.	.	.	.	24ee\	.
.	.	.	.	24ff#\	.
.	.	.	.	24gg#\	.
.	.	.	.	24ff#\	.
.	.	.	.	24ee\JJ	.
!	!	!	!	!LO:TX:t=P:problem:mixed beam	!
4r	.	4g# 4B/	.	24e/LL	.
.	.	.	.	24ee\	.
.	.	.	.	24gg#\	.
.	.	.	.	24bb\	.
.	.	.	.	24gg#\	.
.	.	.	.	24ee\JJ	.
=52	=52	=52	=52	=52	=52
4BB/	.	4r	.	24B/LL	.
.	.	.	.	24b/	.
.	.	.	.	24dd#X/	.
.	.	.	.	24ff#/	.
.	.	.	.	24dd#/	.
.	.	.	.	24b/JJ	.
4r	.	4f# 4d#X/	.	24B/LL	.
.	.	.	.	24b/	.
.	.	.	.	24dd#/	.
.	.	.	.	24ff#/	.
.	.	.	.	24dd#/	.
.	.	.	.	24b/JJ	.
4BB/	.	4r	.	24bb\LL	.
.	.	.	.	24b\	.
.	.	.	.	24cc#\	.
.	.	.	.	24dd#\	.
.	.	.	.	24cc#\	.
.	.	.	.	24b\JJ	.
4r	.	4f# 4d#/	.	24B/LL	.
.	.	.	.	24b/	.
.	.	.	.	24dd#/	.
.	.	.	.	24ff#/	.
.	.	.	.	24dd#/	.
.	.	.	.	24b/JJ	.
=53	=53	=53	=53	=53	=53
!	!LO:DY:b:t=F	!	!	!LO:TX:t=P:problem:mixed beam	!
!	!	!	!	!	!LO:DY:t= :mod=%s
!	!	!	!	!	!LO:MO:mod=!LO&colon;DY&colon;ed=brack
!	!	!	!	!	!null
4E\	f	4r	.	24e/LL	f
.	.	.	.	24ee\	.
.	.	.	.	24gg#\	.
.	.	.	.	24bb\	.
.	.	.	.	24gg#\	.
.	.	.	.	24ee\JJ	.
!	!	!	!LO:DY:b:t=F	!LO:TX:t=P:problem:mixed beam	!
4r	.	4g# 4B/	f	24e/LL	.
.	.	.	.	24ee\	.
.	.	.	.	24gg#\	.
.	.	.	.	24bb\	.
.	.	.	.	24gg#\	.
.	.	.	.	24ee\JJ	.
*	*	*	*	*xywh-#10:517,3675,3394,455	*
!	!	!	!	!LO:LB:g=original	!
4AA/	.	4r	.	24a\LL	.
.	.	.	.	24aa\	.
.	.	.	.	24ccc#\	.
.	.	.	.	24eee\	.
.	.	.	.	24ccc#\	.
.	.	.	.	24aa\JJ	.
4r	.	4e 4c#/	.	24a\LL	.
.	.	.	.	24aa\	.
.	.	.	.	24ccc#\	.
.	.	.	.	24eee\	.
.	.	.	.	24ccc#\	.
.	.	.	.	24aa\JJ	.
=54	=54	=54	=54	=54	=54
4BB/	p	4r	.	24B/LL	p
.	.	.	.	24b/	.
.	.	.	.	24dd#X/	.
.	.	.	.	24ff#/	.
.	.	.	.	24dd#/	.
.	.	.	.	24b/JJ	.
4r	.	4f# 4d#X/	p	24B/LL	.
.	.	.	.	24b/	.
.	.	.	.	24dd#/	.
.	.	.	.	24ff#/	.
.	.	.	.	24dd#/	.
.	.	.	.	24b/JJ	.
4E\	.	4r	.	24e\LL	.
.	.	.	.	24ee\	.
.	.	.	.	24gg#\	.
.	.	.	.	24bb\	.
.	.	.	.	24gg#\	.
.	.	.	.	24ee\JJ	.
4r	.	4g# 4B/	.	24e\LL	.
.	.	.	.	24ee\	.
.	.	.	.	24gg#\	.
.	.	.	.	24bb\	.
.	.	.	.	24gg#\	.
.	.	.	.	24ee\JJ	.
=55	=55	=55	=55	=55	=55
!	!	!	!	!	!LO:DY:t= :mod=%s
!	!	!	!	!	!LO:MO:mod=!LO&colon;DY&colon;ed=
!	!LO:DY:b:t=F	!	!LO:DY:b:t=F	!	!null
4AA/	f	4e 4c#/	f	24A/LL	f
!	!	!	!	!	!LO:DY:b:t=F
!	!	!	!	!	!LO:MO:mod=.
.	.	.	.	24c#/	f
.	.	.	.	24e/	.
.	.	.	.	24a/	.
.	.	.	.	24cc#/	.
.	.	.	.	24ee/JJ	.
4r	.	4r	.	24A/LL	.
.	.	.	.	24c#/	.
.	.	.	.	24e/	.
.	.	.	.	24a/	.
.	.	.	.	24cc#/	.
.	.	.	.	24ee/JJ	.
4A\	.	4e 4c#/	.	24a\LL	.
.	.	.	.	24cc#\	.
.	.	.	.	24ee\	.
.	.	.	.	24aa\	.
.	.	.	.	24ccc#\	.
.	.	.	.	24eee\JJ	.
4AA/	.	4e 4c#/	.	24a\LL	.
.	.	.	.	24cc#\	.
.	.	.	.	24ee\	.
.	.	.	.	24aa\	.
.	.	.	.	24ccc#\	.
.	.	.	.	24eee\JJ	.
!	!	!	!	!LO:LB:g=original	!
=56	=56	=56	=56	=56	=56
*	*	*	*	*xywh-#10:514,4014,3432,358	*
4BB/	.	4e 4B/	.	24b\LL	.
.	.	.	.	24bb\	.
.	.	.	.	24aa\	.
.	.	.	.	24gg#\	.
.	.	.	.	24ff#\	.
.	.	.	.	24ee\JJ	.
4r	.	4r	.	24dd#X\LL	.
.	.	.	.	24gg#\	.
.	.	.	.	24ff#\	.
.	.	.	.	24ee\	.
.	.	.	.	24dd#\	.
.	.	.	.	24cc#\JJ	.
2r	.	2r	.	24b\LL	.
.	.	.	.	24ee\	.
.	.	.	.	24dd#\	.
.	.	.	.	24cc#\	.
.	.	.	.	24b\	.
.	.	.	.	24a\JJ	.
.	.	.	.	24g#/LL	.
.	.	.	.	24b/	.
.	.	.	.	24a/	.
.	.	.	.	24g#/	.
.	.	.	.	24f#/	.
.	.	.	.	24e/JJ	.
=57	=57	=57	=57	=57	=57
!LO:TX:t=P:problem:mixed beam	!	!	!	!	!
8BB/L	.	8e/L	.	1f#T	.
(16B\L	.	8e/	.	.	.
16A#X\JJ	.	.	.	.	.
8B\L)	.	8e/	.	.	.
8B\J	.	8e/J	.	.	.
*	*	*tremolo	*	*	*
8r	.	8d#X/L	.	.	.
(16BB/LL	.	8d#/	.	.	.
16AA#X/JJ	.	.	.	.	.
8BB/L)	.	8d#/	.	.	.
8BB/J	.	8d#/J	.	.	.
*	*	*Xtremolo	*	*	*
!LO:LB:g=original	!	!LO:LB:g=original	!	!	!
=58	=58	=58	=58	=58	=58
*xywh-#66:586,2296,3435,403	*	*xywh-#44:612,3095,3389,390	*	*	*
!	!	!	!	!LO:MO:mod=!LO&colon;TX&colon;a&colon;i&colon;t=Dolce	!
!	!	!	!	!LO:TX:b:i:t=dol	!
[1E	p	4e/	p	(16g#/LL	.
.	.	.	.	16a/	.
.	.	.	.	16g#/	.
.	.	.	.	16f#/JJ	.
.	.	(4B/	.	16g#/LL	.
.	.	.	.	16e/	.
.	.	.	.	16a/	.
.	.	.	.	16f#/JJ)	.
.	.	4G#/	.	(4b/	.
.	.	4B/)	.	16a/LL	.
.	.	.	.	16g#/	.
.	.	.	.	16f#/	.
.	.	.	.	16e/JJ)	.
=59	=59	=59	=59	=59	=59
4.E\]	.	4.A/	.	(16cc#\LL	.
.	.	.	.	16dd#X\	.
.	.	.	.	16cc#\	.
.	.	.	.	16b#X\JJ	.
.	.	.	.	16cc#\LL	.
.	.	.	.	16a\	.
8F#\	.	8a/	.	16dd#\	.
.	.	.	.	16bn\JJ	.
8G#'\L	.	4g#/	.	4ee\)	.
8A'\	.	.	.	.	.
8B'\	.	4r	.	4r	.
8G#'\J	.	.	.	.	.
=60	=60	=60	=60	=60	=60
8A\L	pp	8r	.	(4.cc#t\	.
8G#\	.	(8e#X/	.	.	.
8A\	.	4f#/)	.	.	.
8F#\J	.	.	.	8aa\)	.
8G#\L	.	8r	.	(4.bT\	.
8F#\	.	(8d#X/	.	.	.
8G#\	.	4e#/)	.	.	.
8E\J	.	.	.	8gg#\)	.
!	!	!	!	!LO:LB:g=original	!
=61	=61	=61	=61	=61	=61
*	*	*	*	*xywh-#10:511,4228,3416,480	*
8F#\L	.	8r	.	(4.aT</	.
8E\	.	(8c#/	.	.	.
8F#\	.	4d#X/)	.	.	.
8D#X\J	.	.	.	8ff#\)	.
8E\L	.	8r	.	(4.g#t</	.
8D#\	.	8B/	.	.	.
8E\	.	4b\	.	.	.
8G#\J	.	.	.	8ee\)	.
=62	=62	=62	=62	=62	=62
4A\	.	8r	.	(16f#/LL	.
.	.	.	.	16g#/	.
.	.	8ff#\L	.	16f#/	.
.	.	.	.	16e#X/JJ)	.
4AA/	.	8cc#\	.	(16f#/LL	.
.	.	.	.	16c#/	.
.	.	8ff#\J	.	16A/	.
.	.	.	.	16a/JJ)	.
4A\	.	4cc#\	.	(16f#/LL	.
.	.	.	.	16a/)	.
.	.	.	.	(16a/	.
.	.	.	.	16cc#/JJ)	.
4r	.	4r	.	(16b/LL	.
.	.	.	.	16a/	.
.	.	.	.	16g#/	.
.	.	.	.	16f#/JJ)	.
=63	=63	=63	=63	=63	=63
4B\	.	4g#/	.	(16b\LL	.
.	.	.	.	16ee\	.
.	.	.	.	16dd#X\	.
.	.	.	.	16cc#\JJ	.
4r	.	4r	.	16b\LL	.
.	.	.	.	16a#X\	.
.	.	.	.	16an\	.
.	.	.	.	16g#\JJ)	.
8B\L	.	8e/L	.	2f#T</	.
8B\	.	8e/	.	.	.
8BB/	.	8d#X/	.	.	.
8BB/J	.	8d#/J	.	.	.
!	!	!LO:LB:g=original	!	!	!
=64	=64	=64	=64	=64	=64
*	*	*	*	*^	*
*	*	*xywh-#44:604,3392,3389,416	*	*	*xywh-#10:511,4228,3416,480	*
[1E	p <	8e/L	.	8e`/L	8rc	.
.	.	8B/	.	(24b/L	(24g#\LL	.
.	.	.	.	24cc#/	24a\	.
.	.	.	.	24b/JJ	24g#\JJ	.
.	.	8d#X/	.	8a/L)	8f#\L)	.
.	.	8B/J	.	24aa/L	(24ff#\L	.
.	.	.	.	(24bb/	24gg#\	.
.	.	.	.	24aa/JJ	24ff#\JJ	.
.	.	8e/L	.	8gg#/L)	8ee\L)	.
.	.	8B/	.	(24b/L	(24g#\L	.
.	.	.	.	24cc#/	24a\	.
.	.	.	.	24b/JJ	24g#\JJ	.
.	.	8d#/	.	8a/L)	8f#\L)	.
.	.	8B/J	.	8f#/J	8B\J	.
=65	=65	=65	=65	=65	=65	=65
!	!	!	!	!LO:SIC:s=8e`/L:v	!	!
1E]	.	8e/L	.	8e/L	8e\L	.
!	!	!	!	!	!	!LO:MO:mod=!null:null
!	!	!	!	!	!	!LO:DY:t=rinf
.	.	8B/	.	(24b/L	(24g#\L	rfz
.	.	.	.	24cc#/	24a\	.
.	.	.	.	24b/JJ	24g#\JJ	.
.	.	8d#X/	.	8a/L)	8f#\L)	.
.	.	8B/J	.	24aa/L	(24ff#\L	.
.	.	.	.	(24bb/	24gg#\	.
.	.	.	.	24aa/JJ	24ff#\JJ	.
.	.	8e/L	.	8gg#/L)	8ee\L)	.
.	.	8B/	.	(24b/L	(24g#\L	.
.	.	.	.	24cc#/	24a\	.
.	.	.	.	24b/JJ	24g#\JJ	.
.	.	8d#/	.	8a/L)	8f#\L)	.
.	[	8B/J	.	8f#/J	8B\J	.
*	*	*	*	*v	*v	*
!	!	!	!	!LO:LB:g=original	!
=66	=66	=66	=66	=66	=66
*	*	*	*	*xywh-#10:523,4586,3429,442	*
!	!	!	!LO:DY:t= :mod=%s	!	!
!	!	!	!LO:MO:mod=!LO&colon;DY&colon;ed=	!	!
!	!	!	!null	!	!
4.E\	p	8e/	p	4.e 4.G#/	p
!	!	!	!LO:MO:mod=.	!	!
.	.	4ee\	p	.	.
.	.	.	.	8qqg#/	.
8BB/	.	8dd#X\	.	8f# 8B/	.
!LO:SIC:s=(8EE/L:v	!	!	!	!	!
8EE/L	.	(8ee\L	.	8eL 8G#/	.
.	.	.	.	8qqg#/	.
8BB/	.	8dd#\	.	8f# 8B/	.
8E/	.	8ee\	.	8e 8G#/	.
.	.	.	.	8qqg#/	.
!LO:SIC:s=8BB/J):v	!	!	!	!	!
8BB/J	.	8dd#\J)	.	8f#J 8B/	.
!LO:LB:g=original	!	!	!	!	!
=67	=67	=67	=67	=67	=67
*xywh-#66:604,2610,3334,403	*	*	*	*	*
!	!LO:DY:t= :mod=%s	!	!	!	!
!	!LO:MO:mod=!LO&colon;DY&colon;ed=brack	!	!	!	!
!	!null	!	!	!	!LO:DY:a
4EE/	pp	4ee\	pp	2e [2G#/	pp
4E\	.	4b 4g#/	.	.	.
4EE;</	.	4b 4g#;/	.	4e 4G#;/]	.
4r	.	4r	.	4r	.
=68||	=68||	=68||	=68||	=68||	=68||
!	!	!	!	!	!LO:DY:t= :mod=%s
!	!LO:DY:b:t=F	!	!LO:DY:b:t=F	!	!LO:MO:mod=!LO&colon;DY&colon;ed=
!	!	!LO:SIC:s=8B'/L:v	!	!	!null
8C#'/L	f	8B/L	f	4.e#X/	f
!	!	!LO:SIC:s=8B'/:v	!	!	!
8C#'/	.	8B/	.	.	.
!	!	!LO:SIC:s=8B'/:v	!	!	!
8C#'/	.	8B/	.	.	.
!	!	!	!	!	!LO:DY:b:t=F
!	!	!	!	!	!LO:MO:mod=.
.	.	.	.	8qqg#/	f
!	!	!LO:SIC:s=8B'/J:v	!	!	!
8C#'/J	.	8B/J	.	8f#/	.
*tremolo	*	*tremolo	*	*	*
!LO:SIC:s=8C#'/L:v	!	!LO:TX:t=P:problem: 4x staccato	!	!	!
8C#/L	.	8B'/L	.	8e#/L	.
.	.	.	.	8qqg#/	.
8C#/	.	8B'/	.	8f#/	.
8C#/	.	8B'/	.	8e#/	.
.	.	.	.	8qqg#/	.
8C#/J	.	8B'/J	.	8f#/J	.
=69	=69	=69	=69	=69	=69
!LO:SIC:s=8C#'/L:v	!	!LO:SIC:s=8B'/L:v	!	!	!
8C#/L	.	8B/L	.	(16e#X/LL	.
.	.	.	.	16f#/	.
8C#/	.	8B/	.	16g#/	.
.	.	.	.	16f#/JJ	.
8C#/	.	8B/	.	16e#/LL	.
.	.	.	.	16f#/	.
8C#/J	.	8B/J	.	16g#/	.
.	.	.	.	16a/JJ)	.
!LO:SIC:s=8C#'/L:v	!	!LO:SIC:s=8B'/L:v	!	!	!
8C#/L	.	8B/L	.	(16b/LL	.
.	.	.	.	16dd/	.
8C#/	.	8B/	.	16cc#/	.
.	.	.	.	16b/JJ	.
8C#/	.	8B/	.	16a/LL	.
.	.	.	.	16g#/	.
8C#/J	.	8B/J	.	16f#/	.
.	.	.	.	16e#/JJ)	.
!	!	!LO:MO:mod=*null:null	!	!	!
*	*	*Xtremolo	*	*	*
!	!	!LO:LB:g=original	!	!	!
=70	=70	=70	=70	=70	=70
*	*	*xywh-#44:589,3688,3404,405	*	*	*
!LO:SIC:s=8C#'/L:v	!	!LO:SIC:s=8A'/L:v	!	!	!
8C#/L	.	8A/L	.	4.f#/	.
8C#/	.	8A/	.	.	.
8C#/	.	8A/	.	.	.
.	.	.	.	8qqa/	.
8C#/	.	8A/J	.	8g#/	.
*	*	*tremolo	*	*	*
!	!	!LO:SIC:s=8A'/L:v	!	!	!
8C#/	.	8A/L	.	8f#/L	.
.	.	.	.	8qqa/	.
8C#/	.	8A/	.	8g#/	.
8C#/	.	8A/	.	8f#/	.
.	.	.	.	8qqa/	.
8C#/J	.	8A/J	.	8g#/J	.
=71	=71	=71	=71	=71	=71
!LO:SIC:s=8C#'/L:v	!	!LO:SIC:s=8A'/L:v	!	!	!
8C#/L	.	8A/L	.	(16f#/LL	.
.	.	.	.	16g#/	.
8C#/	.	8A/	.	16f#/	.
.	.	.	.	16e#X/JJ	.
8C#/	.	8A/	.	16f#/LL	.
.	.	.	.	16g#/	.
8C#/J	.	8A/J	.	16a/	.
.	.	.	.	16b/JJ)	.
!LO:SIC:s=8C#'/L:v	!	!LO:SIC:s=8A'/L:v	!	!	!
8C#/L	.	8A/L	.	(16cc#/LL	.
.	.	.	.	16b#X/	.
8C#/	.	8A/	.	16cc#/	.
.	.	.	.	16b#/JJ	.
8C#/	.	8A/	.	16cc#/LL	.
.	.	.	.	16a/	.
8C#/J	.	8A/J	.	16g#/	.
.	.	.	.	16f#/JJ)	.
!	!	!	!	!LO:LB:g=original	!
*	*	*Xtremolo	*	*	*
=72	=72	=72	=72	=72	=72
*	*	*	*	*xywh-#11:450,535,3474,459	*
!	!	!	!LO:DY:t= :mod=%s	!	!
!	!	!	!LO:MO:mod=!LO&colon;DY&colon;ed=brack	!	!
!	!	!	!null	!	!
8C#/L	p	(8en/L	p	4.gn/	.
8C#/	.	8A/	.	.	.
8C#/	.	8e/	.	.	.
.	.	.	.	8qqb/	.
8C#/J	.	8A/J)	.	8a/	.
8C#/L	.	(8e/L	.	8g/L	.
.	.	.	.	8qqb/	.
8C#/	.	8A/	.	8a/J	.
8C#/	.	8e/	.	16g/LL	.
.	.	.	.	16a/	.
8C#/J	.	8A/J)	.	16b/	.
.	.	.	.	16g/JJ	.
=73	=73	=73	=73	=73	=73
8Dn\L	.	(8dn/L	.	4.f#/	.
8D\	.	8A/	.	.	.
8D\	.	8d/	.	.	.
.	.	.	.	8qqa/	.
8D\J	.	8A/J)	.	8gn/	.
8D\L	.	(8d/L	.	8f#/L	.
.	.	.	.	8qqa/	.
8D\	.	8A/	.	8g/J	.
8D\	.	8d/	.	16f#/LL	.
.	.	.	.	16g/	.
8D\J	.	8A/J)	.	16a/	.
.	.	.	.	16g/JJ	.
=74	=74	=74	=74	=74	=74
8C#/L	.	(8e/L	.	4.gn/	.
8C#/	.	8A/	.	.	.
8C#/	.	8e/	.	.	.
.	.	.	.	8qqb/	.
8C#/J	.	8A/J)	.	8a/	.
8C#/L	.	(8e/L	.	8g/L	.
.	.	.	.	8qqb/	.
8C#/	.	8A/	.	8a/J	.
8C#/	.	8e/	.	16g/LL	.
.	.	.	.	16a/	.
8C#/J	.	8A/J)	.	16b/	.
.	.	.	.	16g/JJ	.
=75	=75	=75	=75	=75	=75
8D\L	.	8d/L	.	4.f#/	.
8D\	.	8A/	.	.	.
8D\	.	8A/	.	.	.
.	.	.	.	8qqa/	.
8D\J	.	8A/J	.	8g#X/	.
*Xtremolo	*	*	*	*	*
!	!	!	!	!	!LO:DY:t= :mod=%s
!	!LO:MO:mod=!null:null	!	!	!	!LO:MO:mod=!LO&colon;DY&colon;ed=
!	!LO:HP:b:t=cres	!	!	!	!null
8D/L	<	8r	.	8f#/L	<
!	!	!	!	!	!LO:HP:b:t=cres
!	!	!	!	!	!LO:MO:mod=.
.	.	.	.	8qqa/	<
!	!	!	!LO:DY:t= :mod=%s	!	!
!	!	!	!LO:MO:mod=!LO&colon;DY&colon;ed=brack	!	!
!	!	!	!null	!	!
8D/	.	8A/L	<	8g#/J	.
8C#/	.	8A/	.	16f#/LL	.
.	.	.	.	16g#/	.
8C#/J	.	8A/J	.	16a/	.
.	.	.	.	16g#/JJ	.
!	!	!LO:LB:g=original	!	!	!
=76	=76	=76	=76	=76	=76
*	*	*xywh-#44:586,3996,3441,401	*	*	*
*tremolo	*	*	*	*	*
8BB#X/L	.	8r	.	4.f#/	.
8BB#/	.	(8A/L	.	.	.
8BB#/	.	8d#X/)	.	.	.
.	.	.	.	8qqa/	.
!	!	!	!	!	!LO:MO:mod=!null:null
!	!	!	!	!	!LO:DY:t=rinf
8BB#/J	.	8d#`/J	.	8g#X/	rfz
8BB#/L	.	8r	.	8f#/L	.
.	.	.	.	8qqa/	.
!	!	!	!LO:HP:b:t=cres	!	!
!	!	!	!LO:MO:mod=.	!	!
8BB#/	.	8d#/L	<	8g#/J	.
8BB#/	.	8A/	.	16f#/LL	.
.	.	.	.	16g#/	.
8BB#/J	.	8A/J	.	16a/	.
.	.	.	.	16g#/JJ	.
*Xtremolo	*	*	*	*	*
!	!	!	!	!LO:LB:g=original	!
=77	=77	=77	=77	=77	=77
*	*	*	*	*xywh-#11:487,863,3427,378	*
!	!LO:MO:mod=!null:null	!	!LO:MO:mod=!null:null	!LO:MO:mod=!LO&colon;TX&colon;a&colon;i&colon;t=Dolce	!
!	!LO:DY:t=rinf	!	!LO:DY:t=rinf	!LO:TX:a:i:t=dol	!
4C#/	rfz	(4G#X/	rfz	16e#X/LL	.
.	.	.	.	(16cc#/	.
.	.	.	.	16b#X/)	.
.	.	.	.	(16cc#/JJ	.
8r	.	8A/L)	.	16a/LL)	.
.	.	.	.	(16g#/	.
8BB#X/	.	(8d#X/J	.	16a/)	.
.	.	.	.	(16f#/JJ	.
4C#/	.	8c#/L)	.	16e#/LL)	.
.	.	.	.	(16cc#/	.
.	.	(8G#/	.	16b#/)	.
.	.	.	.	(16cc#/JJ	.
8r	.	8A/	.	16a/LL)	.
.	.	.	.	(16g#/	.
!	!LO:DY:b:t=F	!	!	!	!
!	!LO:MO:mod=.	!	!	!	!
8BB#X/	f	(8d#/J)	.	16a/)	.
.	.	.	.	(16f#/JJ	.
!LO:LB:g=original	!	!	!	!	!
=78	=78	=78	=78	=78	=78
*xywh-#66:604,2867,3357,384	*	*	*	*	*
!	!LO:DY:t= :mod=%s	!	!	!	!
!	!LO:MO:mod=!LO&colon;DY&colon;ed=	!	!	!	!
!	!null	!	!LO:DY:b:t=F	!	!
4C#/	f	8c#/L)	f	16e#X/LL)	.
.	.	.	.	(16cc#/	.
.	.	8G#'/	.	16b#X/)	.
.	.	.	.	(16cc#/JJ	.
4C#/	.	8G#'/	.	16ee/LL	.
.	.	.	.	16cc#/)	.
.	.	8G#'/J	.	16g#'/	.
.	.	.	.	16e#'/JJ	.
4C#/	.	4G#/	.	4c#/	.
4r	.	4r	.	4r	.
=79	=79	=79	=79	=79	=79
!	!	!	!	!LO:MO:mod=!LO&colon;TX&colon;a&colon;i&colon;t=Dolce	!
!	!	!	!	!LO:TX:a:i:t=dol	!
8r	.	8r	.	1cc#	<
(8A\L	p	(8cc#/L	p	.	.
8G#\	.	8b/	.	.	.
8F#\J	.	8a/J	.	.	.
8E#X\L	.	8g#/L	.	.	.
8F#\	.	8a/	.	.	.
8G#\	.	8b/	.	.	.
8E#\J)	.	8g#/J)	.	.	[
=80	=80	=80	=80	=80	=80
.	.	.	.	8qqcc#/	>
4F#\	.	4a/	.	4.aa\	.
4r	.	4r	.	.	.
.	.	.	.	8gg#\	.
2r	.	2r	.	4ff#\	]
.	.	.	.	4r	.
=81	=81	=81	=81	=81	=81
8r	.	8r	.	1cc#t	.
(8A\L	.	(8cc#/L	.	.	.
8G#\	.	8b/	.	.	.
8F#\J	.	8a/J	.	.	.
8E#X\L	.	8g#/L	.	.	.
8F#\	.	8a/	.	.	.
8G#\	.	8b/	.	.	.
8E#\J)	.	8g#/J)	.	.	.
!	!	!LO:LB:g=original	!	!	!
=82	=82	=82	=82	=82	=82
*	*	*xywh-#44:582,4293,3423,379	*	*	*
.	.	.	.	8qqcc#/	.
4F#\	.	4a/	.	4.aa\	.
4r	.	4r	.	.	.
.	.	.	.	8gg#\	.
2r	.	2r	.	4ff#\	.
.	.	.	.	4r	.
=83	=83	=83	=83	=83	=83
!LO:MO:mod=!LO&colon;TX&colon;a&colon;i&colon;t=Lento	!	!LO:MO:mod=!LO&colon;TX&colon;a&colon;i&colon;t=Lento	!	!LO:MO:mod=!LO&colon;TX&colon;a&colon;i&colon;t=Lento	!
!LO:TX:b:i:t=lento	!	!null	!	!LO:TX:a:i:t=lento	!
8F#'\L	.	8a#X'\L	.	4.ccc#\	>
!	!	!LO:MO:mod=!null:null	!	!	!
!	!	!LO:TX:a:i:t=lento	!	!	!
8G#'\	.	8b'\	.	.	.
8A#X'\	.	8cc#'\	.	.	.
8B'\J	.	8dd'\J	.	8bb\	.
2F#;\	.	2ee 2cc#;\	.	2aa#X;\	]
=84	=84	=84	=84	=84	=84
8r	.	8r	.	1ff#	<[
!	!	!	!LO:DY:t= :mod=%s	!	!
!	!	!	!LO:MO:mod=!LO&colon;DY&colon;ed=brack	!	!
!	!	!	!null	!	!
(8d\L	p	(8f#/L	p	.	.
8c#\	.	8e/	.	.	.
8B\J	.	8d/J	.	.	.
8A#X\L	.	8c#/L	.	.	.
8B\	.	8d/	.	.	.
8c#\	.	8e/	.	.	.
8A#\J)	.	8c#/J)	.	.	.
=85	=85	=85	=85	=85	=85
.	.	.	.	8qqff#/	>
4B\	.	4d/	.	4.ddd\	.
4r	.	4r	.	.	.
.	.	.	.	8ccc#\	.
2r	.	2r	.	4bb\	]
.	.	.	.	4r	.
!	!	!	!	!LO:LB:g=original	!
!LO:LB:g=original	!	!	!	!	!
=86	=86	=86	=86	=86	=86
*xywh-#66:608,3159,3402,407	*	*	*	*xywh-#11:478,1097,3415,440	*
!LO:MO:mod=!LO&colon;TX&colon;a&colon;i&colon;t=Lento	!	!LO:MO:mod=!LO&colon;TX&colon;a&colon;i&colon;t=Lento	!	!LO:MO:mod=!LO&colon;TX&colon;a&colon;i&colon;t=Lento	!
!LO:TX:b:i:t=lento	!	!LO:TX:a:i:t=lento	!	!LO:TX:b:i:t=lento	!
!	!	!LO:SIC:s=8d#X'/L:v	!	!	!
8B'\L	.	8d#X/L	.	4.fff#\	.
!	!	!LO:SIC:s=8e'/:v	!	!	!
8c#'\	.	8e/	.	.	.
!	!	!LO:SIC:s=8f#'/:v	!	!	!
8d#X'\	.	8f#/	.	.	.
!	!	!LO:SIC:s=8g#'/J:v	!	!	!
8e'\J	.	8g#/J	.	8eee\	.
2B;\	.	2a 2f#;/	.	2ddd#X;\	.
=87	=87	=87	=87	=87	=87
!	!	!	!LO:DY:t= :mod=%s	!	!LO:DY:t= :mod=%s
!	!	!	!LO:MO:mod=!LO&colon;DY&colon;ed=brack	!	!LO:MO:mod=!LO&colon;DY&colon;ed=
!	!LO:DY:b:t=F	!	!null	!	!null
4E\	f	4gn 4B/	f	16eee\LL	f
!	!	!	!	!	!LO:DY:b:t=F
!	!	!	!	!	!LO:MO:mod=.
.	.	.	.	16bb\	f
.	.	.	.	16cccn\	.
.	.	.	.	16bb\JJ	.
4r	.	4r	.	16aa\LL	.
.	.	.	.	16ggn\	.
.	.	.	.	16ff#\	.
.	.	.	.	16ee\JJ	.
4E\	.	4b 4g/	.	16eee\LL	.
.	.	.	.	16bb\	.
.	.	.	.	16ccc\	.
.	.	.	.	16bb\JJ	.
4r	.	4r	.	16aa\LL	.
.	.	.	.	16gg\	.
.	.	.	.	16ff#\	.
.	.	.	.	16ee\JJ	.
=88	=88	=88	=88	=88	=88
*	*	*	*	*^	*
*	*	*	*	*	*xywh-#11:478,1097,3415,440	*
4F#\	.	4a/	.	16rff	[2.dd#X\	.
.	.	.	.	16cccn/LL	.	.
.	.	.	.	16bb/	.	.
.	.	.	.	16ccc/JJ	.	.
4r	.	4f#/	.	16bb/LL	.	.
.	.	.	.	16ccc/	.	.
.	.	.	.	16bb/	.	.
.	.	.	.	16ccc/JJ	.	.
4F#\	.	4d#X/	.	16bb/LL	.	.
.	.	.	.	16ccc/	.	.
.	.	.	.	16bb/	.	.
.	.	.	.	16ccc/JJ	.	.
4r	.	8f#/L	.	16bb/LL	8dd#\L]	.
.	.	.	.	16ccc/	.	.
.	.	8d#/J	.	16bb/	8ff#\J	.
.	.	.	.	16aa/JJ	.	.
=89	=89	=89	=89	=89	=89	=89
4E\	.	4e/	.	16ggn/LL	8ee\	.
.	.	.	.	16bb/	.	.
.	.	.	.	16cccn/	8rcyyyy	.
.	.	.	.	16bb/JJ	.	.
4r	.	4r	.	16aa\LL	4rcyyyy	.
.	.	.	.	16gg\	.	.
.	.	.	.	16ff#\	.	.
.	.	.	.	16ee\JJ	.	.
4E\	.	4b 4g#/	.	16eee\LL	2rcyyyy	.
.	.	.	.	16ccc\	.	.
.	.	.	.	16ddd\	.	.
.	.	.	.	16bb\JJ	.	.
4r	.	4r	.	16aa\LL	.	.
.	.	.	.	16gg\	.	.
.	.	.	.	16ff#\	.	.
.	.	.	.	16ee\JJ	.	.
!	!	!LO:LB:g=original	!	!	!	!
=90	=90	=90	=90	=90	=90	=90
*	*	*xywh-#44:578,4574,3415,465	*	*	*	*
4F#\	.	4a/	.	16rff	[2.dd#X\	.
.	.	.	.	16cccn/LL	.	.
.	.	.	.	16bb/	.	.
.	.	.	.	16ccc/JJ	.	.
4r	.	2f#/	.	16bb/LL	.	.
.	.	.	.	16ccc/	.	.
.	.	.	.	16bb/	.	.
.	.	.	.	16ccc/JJ	.	.
4F#\	.	.	.	16bb/LL	.	.
.	.	.	.	16ccc/	.	.
.	.	.	.	16bb/	.	.
.	.	.	.	16ccc/JJ	.	.
4r	.	4dd#X\	.	16bb/LL	8dd#\L]	.
.	.	.	.	16ccc/	.	.
.	.	.	.	16bb/	8ff#\J	.
.	.	.	.	16aa/JJ	.	.
!	!	!	!	!LO:LB:g=original	!	!
=91	=91	=91	=91	=91	=91	=91
*	*	*	*	*xywh-#11:487,1444,3408,381	*xywh-#11:487,1444,3408,381	*
!	!LO:DY:t= :mod=%s	!	!	!	!	!LO:DY:t= :mod=%s
!	!LO:MO:mod=!LO&colon;DY&colon;ed=brack	!	!LO:MO:mod=!null:null	!	!	!LO:MO:mod=!LO&colon;DY&colon;ed=brack
!	!null	!	!LO:DY:t=rinf	!	!	!null
2G#\	rfz	(16ee\LL	rfz	8bb/	8ee\L	rfz
.	.	16ffn\	.	.	.	.
.	.	16ee\	.	8raayyyy	16gg#X\L	.
.	.	16ff\JJ)	.	.	16aa\JJ	.
.	.	(16ee\LL	.	4raayyyy	8bb\L	.
.	.	16ff\	.	.	.	.
.	.	16ee\	.	.	8dddn\J	.
.	.	16ff\JJ)	.	.	.	.
4G#\	.	(16ee\LL	.	2raayyyy	2bb\	.
.	.	16ff\	.	.	.	.
.	.	16ee\	.	.	.	.
.	.	16ff\JJ)	.	.	.	.
4G#\	.	(16ee\LL	.	.	.	.
.	.	16ff\	.	.	.	.
.	.	16ee\	.	.	.	.
.	.	16dd\JJ)	.	.	.	.
*	*	*	*	*v	*v	*
=92	=92	=92	=92	=92	=92
(16A\LL	.	8cc#X\L	.	2.ccc#X\	.
16B-X\	.	.	.	.	.
16A\	.	16cc#\L	.	.	.
16B-\JJ)	.	16dd\JJ	.	.	.
(16A\LL	.	8ee\L	.	.	.
16B-\	.	.	.	.	.
16A\	.	8ggn\J	.	.	.
16B-\JJ)	.	.	.	.	.
(16A\LL	.	2ee\	.	.	.
16B-\	.	.	.	.	.
16A\	.	.	.	.	.
16B-\JJ)	.	.	.	.	.
(16A\LL	.	.	.	4ccc#\	.
16B-\	.	.	.	.	.
16A\	.	.	.	.	.
16Gn\JJ)	.	.	.	.	.
!LO:LB:g=original	!	!	!	!	!
=93	=93	=93	=93	=93	=93
*xywh-#66:597,3428,3420,418	*	*	*	*	*
!	!LO:DY:t= :mod=%s	!	!	!	!LO:DY:t= :mod=%s
!	!LO:MO:mod=!LO&colon;DY&colon;ed=brack	!	!LO:MO:mod=!null:null	!	!LO:MO:mod=!LO&colon;DY&colon;ed=brack
!	!null	!	!LO:DY:t=rinf	!	!null
8F#\L	rfz	(16dd\LL	rfz	4.cccn\	rfz
.	.	16ee-X\	.	.	.
16F#\L	.	16dd\	.	.	.
16Gn\JJ	.	16ee-\JJ)	.	.	.
8A\L	.	(16dd\LL	.	.	.
.	.	16ee-\	.	.	.
8cn\J	.	16dd\	.	8aa\	.
.	.	16ee-\JJ)	.	.	.
2A\	.	(16dd\LL	.	2ff#\	.
.	.	16ee-\	.	.	.
.	.	16dd\	.	.	.
.	.	16ee-\JJ)	.	.	.
.	.	(16dd\LL	.	.	.
.	.	16ee-\	.	.	.
.	.	16dd\	.	.	.
.	.	16ccn\JJ)	.	.	.
!	!	!LO:LB:g=original	!	!	!
=94	=94	=94	=94	=94	=94
*	*	*xywh-#45:567,566,3367,488	*	*	*
!	!LO:DY:b:t=F	!	!LO:DY:b:t=F	!	!
!	!	!	!	!	!LO:DY:t= :mod=%s
!	!	!	!	!	!LO:MO:mod=!LO&colon;DY&colon;ed=
!	!	!	!	!	!null
(16Gn\LL	f	(16b/LL	f	16ggn\LL	f
16A\	.	16a/	.	16aa\	.
16G\	.	16gn/	.	16gg\	.
!	!	!	!	!	!LO:DY:t=rfz
!	!	!	!	!	!LO:MO:mod=.
16A\JJ)	.	16a/JJ)	.	16aa\JJ	rfz
(16G\LL	.	(16g/LL	.	16gg\LL	.
16A\	.	16a/	.	16aa\	.
16G\	.	16g/	.	16gg\	.
16A\JJ)	.	16a/JJ)	.	16aa\JJ	.
(16G\LL	.	(16g/LL	.	16gg\LL	.
16A\	.	16a/	.	16aa\	.
16G\	.	16g/	.	16gg\	.
16A\JJ)	.	16a/JJ)	.	16aa\JJ	.
(16G\LL	.	(16g/LL	.	16gg\LL	.
16A\	.	16a/	.	16ffn\	.
16G\	.	16g/	.	16ee\	.
!	!	!	!	!	!LO:DY:b:t=F
!	!	!	!	!	!LO:MO:mod=.
16Fn\JJ)	.	16a/JJ)	.	16dd\JJ	f
=95	=95	=95	=95	=95	=95
4E\	.	4gn/	.	16ccn\LL	.
.	.	.	.	16ggn\	.
.	.	.	.	16aa\	.
.	.	.	.	16gg\JJ	.
4r	.	4r	.	16ffn\LL	.
.	.	.	.	16ee\	.
.	.	.	.	16dd\	.
.	.	.	.	16cc\JJ	.
4Cn/	.	4e 4Gny/	.	16cccny\LL	.
.	.	.	.	16gg\	.
.	.	.	.	16aa\	.
.	.	.	.	16gg\JJ	.
4r	.	4r	.	16ff\LL	.
.	.	.	.	16ee\	.
.	.	.	.	16dd\	.
.	.	.	.	16cc\JJ	.
=96	=96	=96	=96	=96	=96
*	*	*	*	*^	*
*	*	*	*	*	*xywh-#11:487,1444,3408,381	*
4D\	.	2.fn/	.	16rdd	[2.b\	.
.	.	.	.	16aa/LL	.	.
.	.	.	.	16ggn/	.	.
.	.	.	.	16aa/JJ	.	.
4r	.	.	.	16gg/LL	.	.
.	.	.	.	16aa/	.	.
.	.	.	.	16gg/	.	.
.	.	.	.	16aa/JJ	.	.
4Gn\	.	.	.	16gg/LL	.	.
.	.	.	.	16aa/	.	.
.	.	.	.	16gg/	.	.
.	.	.	.	16aa/JJ	.	.
4r	.	8d/L	.	16gg/LL	8b\L]	.
.	.	.	.	16aa/	.	.
.	.	8B/J	.	16gg/	8dd\J	.
.	.	.	.	16ffn/JJ	.	.
!	!	!	!	!LO:LB:g=original	!	!
=97	=97	=97	=97	=97	=97	=97
*	*	*	*	*xywh-#11:484,1703,3349,440	*xywh-#11:484,1703,3349,440	*
4Cn/	.	4cn/	.	16ee/LL	8ccny\	.
.	.	.	.	16ee/	.	.
.	.	.	.	16ffn/	8rcyyyy	.
.	.	.	.	16ee/JJ	.	.
4r	.	4r	.	16dd\LL	4rcyyyy	.
.	.	.	.	16ccn\	.	.
.	.	.	.	16b\	.	.
.	.	.	.	16a\JJ	.	.
4AA/	.	4e 4c/	.	16aa\LL	2rcyyyy	.
.	.	.	.	16ee\	.	.
.	.	.	.	16ffn\	.	.
.	.	.	.	16ee\JJ	.	.
4r	.	4r	.	16dd\LL	.	.
.	.	.	.	16cc\	.	.
.	.	.	.	16b\	.	.
.	.	.	.	16a\JJ	.	.
=98	=98	=98	=98	=98	=98	=98
4BB/	.	2.d/	.	16r	[2.g#X\	.
.	.	.	.	16ffn/LL	.	.
.	.	.	.	16ee/	.	.
.	.	.	.	16ff/JJ	.	.
4r	.	.	.	16ee/LL	.	.
.	.	.	.	16ff/	.	.
.	.	.	.	16ee/	.	.
.	.	.	.	16ff/JJ	.	.
4E\	.	.	.	16ee/LL	.	.
.	.	.	.	16ff/	.	.
.	.	.	.	16ee/	.	.
.	.	.	.	16ff/JJ	.	.
4r	.	8B/L	.	16ee/LL	8g#\L]	.
.	.	.	.	16ff/	.	.
.	.	8G#X/J	.	16ee/	8b\J	.
.	.	.	.	16dd/JJ	.	.
*	*	*	*	*v	*v	*
!LO:LB:g=original	!	!	!	!	!
=99	=99	=99	=99	=99	=99
*xywh-#66:604,3723,3446,407	*	*	*	*	*
!	!	!	!LO:DY:t= :mod=%s	!	!
!	!	!	!LO:MO:mod=!LO&colon;DY&colon;ed=brack	!	!
!	!	!	!null	!	!
4.A\	p	4A/	p	16ccnLL 16a\	p
.	.	.	.	16dd 16b\	.
.	.	.	.	16ee 16ccn\	.
.	.	.	.	16ddJJ 16b\	.
.	.	4r	.	8ccnL 8a\	.
8Gn\	.	.	.	8ccJ 8a\	.
4.Fn\	.	2r	.	16ccLL 16a\	.
.	.	.	.	16dd 16b\	.
.	.	.	.	16ee 16cc\	.
.	.	.	.	16ddJJ 16b\	.
.	.	.	.	8ccL 8a\	.
8E\	.	.	.	8ccJ 8a\	.
=100	=100	=100	=100	=100	=100
*	*	*	*	*^	*
*	*	*	*	*	*xywh-#11:484,1703,3349,440	*
!	!	!	!	!	!	!LO:DY:t= :mod=%s
!	!LO:MO:mod=!null:null	!	!LO:MO:mod=!null:null	!	!	!LO:MO:mod=!LO&colon;DY&colon;ed=brack
!	!LO:HP:a:t=cres	!	!LO:HP:b:t=cres	!	!	!null
4D#X\	<	1f#X	<	16ccn/LL	16a\LL	<
.	.	.	.	16b/	16g#\	.
.	.	.	.	16cc/	16a\	.
.	.	.	.	16cc/JJ	16a\JJ	.
4D#\	.	.	.	16cc/LL	16a\LL	.
.	.	.	.	16b/	16g#\	.
.	.	.	.	16cc/	16a\	.
.	.	.	.	16cc/JJ	16a\JJ	.
4D#\	.	.	.	16cc/LL	2a\	.
.	.	.	.	16b/	.	.
.	.	.	.	16cc/	.	.
.	.	.	.	16cc/JJ	.	.
4D#\	.	.	.	16cc/LL	.	.
.	.	.	.	16b/	.	.
.	.	.	.	16cc/	.	.
.	.	.	.	16cc/JJ	.	.
!	!	!LO:LB:g=original	!	!LO:LB:g=original	!	!
=101	=101	=101	=101	=101	=101	=101
*	*	*xywh-#45:579,932,3361,432	*	*xywh-#11:481,1991,3377,418	*xywh-#11:481,1991,3377,418	*
!	!LO:DY:b:t=F	!	!LO:DY:b:t=F	!	!	!LO:DY:b:t=F
[1E	f	8B/L	f	16b/	16g#X\LL	f
.	.	.	.	16raayyyy	16e\	.
.	.	8g#X/	.	8raayyyy	16f#X\	.
.	.	.	.	.	16g#\JJ	.
.	.	8B/	.	4raayyyy	16a\LL	.
.	.	.	.	.	16b\	.
.	.	8g#/J	.	.	16ccn\	.
.	.	.	.	.	16dd#X\JJ	.
.	.	8B/L	.	2raayyyy	16ee\LL	.
.	.	.	.	.	16ff#\	.
.	.	8g#X/	.	.	16gg#\	.
.	.	.	.	.	16aa\JJ	.
.	.	8B/	.	.	16bb\LL	.
.	.	.	.	.	16gg#\	.
.	.	8g#/J	.	.	16ff#\	.
.	.	.	.	.	16ee\JJ	.
*	*	*	*	*v	*v	*
=102	=102	=102	=102	=102	=102
1E]	.	8cn/L	.	(16aa\LL	.
.	.	.	.	16cccn\)	.
.	.	8a/	.	(16ccc\	.
.	.	.	.	16aa\JJ)	.
.	.	8f#/	.	(16aa\LL	.
.	.	.	.	16ff#\)	.
.	.	8a/J	.	(16ff#\	.
.	.	.	.	16dd#X\JJ)	.
.	.	8ccn\L	.	(16dd#\LL	.
.	.	.	.	16cc#\)	.
.	.	8ff#\	.	(16cc#\	.
.	.	.	.	16a\JJ)	.
.	.	8aa\	.	16a`\LL	.
.	.	.	.	16cc#`\	.
.	.	8ccc#\J	.	16b`\	.
.	.	.	.	16a`\JJ	.
=103	=103	=103	=103	=103	=103
!	!	!LO:TX:t=P:problem:mixed beam	!	!	!
[1E	p	8bb\L	p	16g#/LL	.
.	.	.	.	16e/	.
.	.	8b/	.	16f#/	.
.	.	.	.	16g#/JJ	.
.	.	8g#/	.	16a\LL	.
.	.	.	.	16b\	.
.	.	8b/J	.	16ccn\	.
.	.	.	.	16dd#X\JJ	.
.	.	8g#/L	.	16ee\LL	.
.	.	.	.	16ff#\	.
.	.	8b/	.	16gg#\	.
.	.	.	.	16aa\JJ	.
.	.	8g#/	.	16bb\LL	.
.	.	.	.	16gg#\	.
.	.	8b/J	.	16ff#\	.
.	.	.	.	16ee\JJ	.
!	!	!	!	!LO:LB:g=original	!
=104	=104	=104	=104	=104	=104
*	*	*	*	*xywh-#11:471,2278,3399,424	*
1E]	.	8ccn/L	.	16aa\LL	.
.	.	.	.	16cccn\	.
.	.	8a/	.	16ccc\	.
.	.	.	.	16aa\JJ	.
.	.	8f#/	.	16aa\LL	.
.	.	.	.	16ff#\	.
.	.	8a/J	.	16ff#\	.
.	.	.	.	16dd#X\JJ	.
.	.	8cc\L	.	16dd#/LL	.
.	.	.	.	16cc#/	.
.	.	8ff#\	.	16cc#/	.
.	.	.	.	16a/JJ	.
.	.	8aa\	.	16a/LL	.
.	.	.	.	16cc#/	.
.	.	8ccc#\J	.	16b/	.
.	.	.	.	16a/JJ	.
=105	=105	=105	=105	=105	=105
!	!LO:HP:b:t=cres	!	!	!	!
!	!	!	!LO:DY:t= :mod=%s	!	!LO:DY:t= :mod=%s
!	!	!	!LO:MO:mod=!LO&colon;DY&colon;ed=	!	!LO:MO:mod=!LO&colon;DY&colon;ed=brack
!	!	!	!null	!	!null
4E\	<	4bb\	<	16g#/LL	<
.	.	.	.	16b/	.
.	.	.	.	16g#/	.
.	.	.	.	16e/JJ	.
8r	.	8r	.	16a/LL	.
.	.	.	.	16ccn/	.
!	!	!	!LO:HP:b:t=cres	!	!
!	!	!	!LO:MO:mod=.	!	!
8D#X\	.	8f#/	<	16b/	.
.	.	.	.	16a/JJ	.
4E\	.	4e/	.	16g#/LL	.
.	.	.	.	16b/	.
.	.	.	.	16g#/	.
.	.	.	.	16e/JJ	.
8r	.	8r	.	16a/LL	.
.	.	.	.	16cc/	.
8D#\	.	8f#/	.	16b/	.
.	.	.	.	16a/JJ	.
!	!	!LO:LB:g=original	!	!	!
=106	=106	=106	=106	=106	=106
*	*	*xywh-#45:567,1263,3399,381	*	*	*
!	!LO:DY:b:t=F	!	!	!	!LO:DY:b:t=F
!	!	!	!LO:DY:t= :mod=%s	!	!
!	!	!	!LO:MO:mod=!LO&colon;DY&colon;ed=	!	!
!	!	!	!null	!	!
8E\	f	8B/	f	8g#/L	f
8r	.	8r	.	24g#/L	.
.	.	.	.	24e/	.
.	.	.	.	24B/JJ	.
!	!	!	!LO:DY:b:t=F	!	!
!	!	!	!LO:MO:mod=.	!	!
8E\	.	8B/	f	8G#/L	.
8r	.	8r	.	24b/L	.
.	.	.	.	24g#/	.
.	.	.	.	24e/JJ	.
8E\	.	8B/	.	8B/L	.
8r	.	8r	.	24ee/L	.
.	.	.	.	24b/	.
.	.	.	.	24g#/JJ	.
8E\	.	8B/	.	8e/L	.
8r	.	8r	.	24gg#/L	.
.	.	.	.	24ee/	.
.	.	.	.	24cc#/JJ	.
=107	=107	=107	=107	=107	=107
8E\	.	8B/	.	8g#\L	.
8r	.	8r	.	24bb\L	.
.	.	.	.	24gg#\	.
.	.	.	.	24ee\JJ	.
8E\	.	8g#/	.	8b\L	.
8r	.	8r	.	24bb\L	.
.	.	.	.	24gg#\	.
.	.	.	.	24ee\JJ	.
!LO:SIC:s=4E`\:v	!	!	!	!	!
4E\	.	4g#`/	.	8b`\L	.
.	.	.	.	8eee`\J	.
4r;	.	4r;	.	4r;	.
!	!	!	!	!LO:LB:g=original	!
=108	=108	=108	=108	=108	=108
*	*	*	*	*xywh-#11:459,2587,3412,440	*
!	!	!	!	!LO:MO:mod=!LO&colon;TX&colon;a&colon;i&colon;t=Dolce	!
!	!	!	!	!LO:TX:b:i:t=dol	!
[1AA	p	(2e/	p	(16cc#X\LL	.
.	.	.	.	16dd\	.
.	.	.	.	16cc#\	.
.	.	.	.	16b\JJ	.
.	.	.	.	16cc#\LL	.
.	.	.	.	16a\	.
.	.	.	.	16dd\	.
!	!	!	!	!LO:SIC:s=16b\JJ):v	!
.	.	.	.	(16b\JJ)	.
!	!	!	!	!LO:SIC:s=(4ee\:v	!
.	.	4c#X/	.	4ee\	.
.	.	4e/)	.	16dd\LL	.
.	.	.	.	16cc#\	.
.	.	.	.	16b\	.
.	.	.	.	16a\JJ)	.
=109	=109	=109	=109	=109	=109
4.AA/]	.	2d/	.	(16ff#\LL	.
.	.	.	.	16gg#\	.
.	.	.	.	16ff#\	.
.	.	.	.	16ee#X\JJ	.
.	.	.	.	16ff#\LL	.
.	.	.	.	16dd\	.
8BB/	.	.	.	16gg#\	.
.	.	.	.	16een\JJ)	.
8C#/L	.	4c#/	.	4aa\	.
8E/	.	.	.	.	.
8C#/	.	4e/	.	4r	.
8AA/J	.	.	.	.	.
!LO:LB:g=original	!	!	!	!	!
=110	=110	=110	=110	=110	=110
*xywh-#66:593,3988,3424,440	*	*	*	*	*
*	*	*	*	*8va	*
!	!	!	!	!LO:SIC:s=(16bb/LL:v	!
[1E	.	4r	.	16bb/LL	.
!	!	!	!	!LO:SIC:s=16ccc#/:v	!
.	.	.	.	(16ccc#/	.
.	.	.	.	16bb/	.
.	.	.	.	16aa/JJ	.
.	.	4b 4e/	.	16gg#/LL	.
.	.	.	.	16ff#/	.
.	.	.	.	16gg#/	.
.	.	.	.	16ee/JJ)	.
.	.	4r	.	(16ccc#\LL	.
.	.	.	.	16ddd\	.
.	.	.	.	16ccc#\	.
.	.	.	.	16bb\JJ	.
.	.	4a 4e/	.	16ccc#\LL	.
.	.	.	.	16aa\	.
.	.	.	.	16eee\	.
.	.	.	.	16ccc#\JJ)	.
=111	=111	=111	=111	=111	=111
4E\]	.	8g#/L	.	16bb`\LL	.
.	.	.	.	(16ddd#X\	.
.	.	8a/	.	16eee\	.
.	.	.	.	16ccc#\JJ	.
4E\	.	8g#/	.	16bb\LL)	.
.	.	.	.	(16ddd#\	.
.	.	8a/J	.	16eee\	.
.	.	.	.	16ccc#\JJ	.
4E\	.	4g#/	.	16bb/LL)	.
.	.	.	.	(16aa/	.
.	.	.	.	16gg#/)	.
.	.	.	.	(16ff#/JJ	.
4r	.	4r	.	16ee/LL)	.
.	.	.	.	(16dd/	.
.	.	.	.	16cc#/)	.
.	.	.	.	16b`/JJ	.
*	*	*	*	*X8va	*
!	!	!	!	!LO:LB:g=original	!
=112	=112	=112	=112	=112	=112
*	*	*	*	*xywh-#11:449,2844,3415,431	*
!	!	!	!	!LO:MO:mod=!null:null	!
!	!	!	!	!LO:TX:a:i:t=loco	!
[2A\	.	(2e/	.	(16cc#\LL	.
.	.	.	.	16dd\	.
.	.	.	.	16cc#\	.
.	.	.	.	16b\JJ	.
.	.	.	.	16cc#\LL	.
.	.	.	.	16a\	.
.	.	.	.	16dd\	.
.	.	.	.	16b\JJ)	.
4A\]	.	4c#/	.	4ee\	.
4r	.	4e/)	.	(16dd\LL	.
.	.	.	.	16cc#\	.
.	.	.	.	16b\	.
.	.	.	.	16a\JJ)	.
=113	=113	=113	=113	=113	=113
.	.	.	.	8qqa#X/	.
4A#X;\	.	4.c#;/	.	(16ggn\LL	.
.	.	.	.	16ff#\	.
.	.	.	.	16ee\	.
.	.	.	.	16dd\JJ	.
8r	.	.	.	16cc#\LL	.
.	.	.	.	16b\	.
(8A#\	.	8e/	.	16a#X\)	.
.	.	.	.	16gg`\JJ	.
.	.	.	.	8qqgg/	.
!	!	!LO:SIC:s=4d/:v	!	!	!
4B\)	.	4d;/	.	4ff#\	.
!	!	!LO:SIC:s=4r;:v	!	!	!
4r;	.	4r	.	4r;	.
!	!	!LO:LB:g=original	!	!	!
=114	=114	=114	=114	=114	=114
*	*	*xywh-#45:557,1572,3424,397	*	*	*
4B\	.	4d/	.	(16ff#\LL	.
.	.	.	.	16ggn\	.
.	.	.	.	16ff#\	.
.	.	.	.	16ee#X\JJ	.
4r	.	4r	.	8ff#\L)	.
.	.	.	.	(16ddd\L	.
.	.	.	.	16bb\JJ)	.
4BB/	.	4dd 4d/	.	(16ff#\LL	.
.	.	.	.	16gg\	.
.	.	.	.	16ff#\	.
.	.	.	.	16ee#\JJ	.
4r	.	4r	.	8ff#\L)	.
.	.	.	.	(16ddd\L	.
.	.	.	.	16bb\JJ)	.
=115	=115	=115	=115	=115	=115
4.B\	.	4.dd\	.	(16ff#\LL	.
.	.	.	.	16bb\	.
.	.	.	.	16ddd\	.
.	.	.	.	16fff#\JJ)	.
.	.	.	.	(16eee\LL	.
.	.	.	.	16ddd\	.
8d\	.	8ff#\	.	16ccc#\	.
.	.	.	.	16bb\JJ)	.
4e;\	.	4cc#;\	.	4aa;\	.
8EE;</	.	8b 8e;/	.	8gg#;\	.
!	!	!LO:SIC:s=8r:v	!	!	!
8r	.	8r;	.	8r	.
=116	=116	=116	=116	=116	=116
*	*	*	*	*^	*
*	*	*	*	*	*xywh-#11:449,2844,3415,431	*
!LO:MO:mod=!null:null	!	!	!	!	!	!
!LO:TX:a:t=1	!	!	!	!	!	!
1r	.	8cc#'\L	p	[2ee/	2rgyyyy	.
.	.	8cc#'\	.	.	.	.
.	.	8b'\	.	.	.	.
.	.	8b'\J	.	.	.	.
.	.	8a#X'/L	.	2ee/]	8cc#\L	p
.	.	8a#'/	.	.	8cc#\	.
.	.	8gn'/	.	.	8b\	.
.	.	8g'/J	.	.	8b\J	.
!	!	!	!	!LO:LB:g=original	!	!
=117	=117	=117	=117	=117	=117	=117
*	*	*	*	*xywh-#11:446,3122,3377,424	*xywh-#11:446,3122,3377,424	*
!	!	!	!LO:DY:t=rinf	!	!	!
!	!	!	!	!	!	!
!	!	!	!LO:MO:mod=.	!	!	!
4r	.	4f#/	rfz	4ee/	4a#X\	.
!	!	!	!LO:DY:t= :mod=%s	!	!	!
!	!	!	!LO:MO:mod=!LO&colon;DY&colon;ed=	!	!	!
!	!	!	!	!	!	!LO:MO:mod=!null:null
!	!	!	!null	!	!	!LO:DY:t=rinf
(4F#\	.	(4A#X/	rfz	(16ee\LL	4rcyyyy	rfz
.	.	.	.	16ccc#\)	.	.
.	.	.	.	(16ccc#\	.	.
.	.	.	.	16bb\JJ)	.	.
4G#\	.	4B/	.	(16bb\LL	2rcyyyy	.
.	.	.	.	16aa#X\)	.	.
.	.	.	.	(16aa#\	.	.
.	.	.	.	16ggn\JJ)	.	.
!	!	!LO:TX:t=P:problem:mixed beam	!	!	!	!
4A#X\)	.	8c#/L)	.	(16gg\LL	.	.
.	.	.	.	16ff#\)	.	.
.	.	[>8cc#\J	.	(16ff#\	.	.
.	.	.	.	16ee\JJ)	.	.
=118	=118	=118	=118	=118	=118	=118
!	!	!	!	!	!	!LO:MO:mod=.
.	.	.	.	8qqee/	.	p
!	!LO:DY:t= :mod=%s	!	!	!	!	!LO:DY:t= :mod=%s
!	!LO:MO:mod=!LO&colon;DY&colon;ed=brack	!	!	!	!	!LO:MO:mod=!LO&colon;DY&colon;ed=
!	!null	!	!	!	!	!null
4B\	p	8cc#/L]	p	2dd/	2ryyyy	p
.	.	8b/	.	.	.	.
4r	.	8an/	.	.	.	.
.	.	8a/J	.	.	.	.
2r	.	8g#/L	.	[2dd/	8b\L	.
.	.	8g#/	.	.	8b\	.
.	.	8fn/	.	.	8an\	.
.	.	8f/J	.	.	8a\J	.
=119	=119	=119	=119	=119	=119	=119
!	!	!	!LO:DY:t=rinf	!	!	!
!	!	!	!LO:MO:mod=.	!	!	!
4r	.	4e/	rfz	4dd/]	4g#\	.
!	!LO:DY:t= :mod=%s	!	!LO:DY:t= :mod=%s	!	!	!LO:DY:t= :mod=%s
!	!LO:MO:mod=!LO&colon;DY&colon;ed=brack	!	!LO:MO:mod=!LO&colon;DY&colon;ed=	!	!	!LO:MO:mod=!LO&colon;DY&colon;ed=
!	!null	!	!null	!	!	!null
(4E\	rfz	(4G#/	rfz	(16dd\LL	4rcyyyy	rfz
!	!	!	!	!	!	!LO:DY:t=rinf
!	!	!	!	!	!	!LO:MO:mod=.
.	.	.	.	16bb\)	.	rfz
.	.	.	.	(16bb\	.	.
.	.	.	.	16aa\JJ)	.	.
4F#\	.	4A/	.	(16aa\LL	2rcyyyy	.
.	.	.	.	16gg#\)	.	.
.	.	.	.	(16gg#\	.	.
.	.	.	.	16ff#\JJ)	.	.
!	!	!LO:TX:t=P:problem:mixed beam	!	!	!	!
4G#\	.	8B/L)	.	(16ff#\LL	.	.
.	.	.	.	16ee\)	.	.
.	.	[>8b\J	.	(16ee\	.	.
.	.	.	.	16dd\JJ)	.	.
!	!	!LO:LB:g=original	!	!	!	!
=120	=120	=120	=120	=120	=120	=120
*	*	*xywh-#45:545,1878,3443,368	*	*	*	*
!	!	!	!	!	!	!LO:MO:mod=.
.	.	.	.	8qqdd/	.	p
!	!	!	!	!	!	!LO:DY:t= :mod=%s
!	!	!	!	!	!	!LO:MO:mod=!LO&colon;DY&colon;ed=
!	!	!	!	!	!	!null
4A\)	.	8b/L]	.	[2cc#/	2rgyyyy	p
.	.	8a/	p	.	.	.
4r	.	8g#/	.	.	.	.
.	.	8g#/J	.	.	.	.
2r	.	8f#X/L	.	2cc#/]	8a\L	.
.	.	8f#/	.	.	8a\	.
.	.	8e/	.	.	8g#\	.
.	.	8e/J	.	.	8g#\J	.
=121	=121	=121	=121	=121	=121	=121
8D'\L	p	8f#'/L	.	16b/	(>16f#\LL	.
.	.	.	.	16raayyyy	16a#X\)	.
8E'\	.	8gn'/	.	8raayyyy	(16cc#\	.
.	.	.	.	.	16a#\JJ)	.
8D'\	.	8f#'/	.	4raayyyy	(16b\LL	.
.	.	.	.	.	16a#\)	.
8E'\J	.	8g'/J	.	.	(16cc#\	.
.	.	.	.	.	16a#\JJ)	.
!	!	!LO:SIC:s=8f#'/L:v	!	!	!	!
8D'\L	.	8f#/L	.	2raayyyy	(16b\LL	.
.	.	.	.	.	16a#\)	.
!	!	!LO:SIC:s=8g'/:v	!	!	!	!
8E'\	.	8g/	.	.	(16cc#\	.
.	.	.	.	.	16a#\JJ)	.
!	!	!LO:SIC:s=8f#'/:v	!	!	!	!
8D'\	.	8f#/	.	.	(16b\LL	.
.	.	.	.	.	16a#\)	.
!	!	!LO:SIC:s=8g'/J:v	!	!	!	!
8E'\J	.	8g/J	.	.	(16cc#\	.
.	.	.	.	.	16a#\JJ)	.
!LO:LB:g=original	!	!	!	!	!LO:LB:g=original	!
=122	=122	=122	=122	=122	=122	=122
*xywh-#66:601,4287,3428,421	*	*	*	*xywh-#11:443,3412,3362,421	*xywh-#11:443,3412,3362,421	*
!	!	!LO:SIC:s=8f#'/L:v	!	!	!	!
8D'/L	pp	8f#/L	pp	8b/L	8rg	pp
!	!	!LO:SIC:s=8d'/:v	!	!	!	!
8BB'/	.	8d/	.	8dd/	8f#\L	.
!	!	!LO:SIC:s=8e'/:v	!	!	!	!
8C#'/	.	8e/	.	8cc#/	8e\	.
!	!	!LO:SIC:s=8f#'/J:v	!	!	!	!
8D'/J	.	8f#/J	.	8b/J	8d\J	.
8E\	.	8e/	.	8a 8c#/	2rcyyyy	.
8r	.	8r	.	8r	.	.
8EE/	.	8d/	.	8g# 8B/	.	.
8r	.	8r	.	8r	.	.
*	*	*	*	*v	*v	*
=123	=123	=123	=123	=123	=123
!	!LO:DY:b:t=F	!	!	!	!LO:DY:b:t=F
4AA/	f	4r	.	24A/LL	f
.	.	.	.	24a/	.
.	.	.	.	24cc#/	.
.	.	.	.	24ee/	.
.	.	.	.	24cc#/	.
.	.	.	.	24a/JJ	.
!	!	!	!LO:DY:b:t=F	!	!
4r	.	4e 4c#/	f	24A/LL	.
.	.	.	.	24a/	.
.	.	.	.	24cc#/	.
.	.	.	.	24ee/	.
.	.	.	.	24cc#/	.
.	.	.	.	24a/JJ	.
4AA/	.	4r	.	24aa\LL	.
.	.	.	.	24a\	.
.	.	.	.	24b\	.
.	.	.	.	24cc#\	.
.	.	.	.	24b\	.
.	.	.	.	24a\JJ	.
4r	.	4e 4c#/	.	24A/LL	.
.	.	.	.	24a/	.
.	.	.	.	24cc#/	.
.	.	.	.	24ee/	.
.	.	.	.	24cc#/	.
.	.	.	.	24a/JJ	.
=124	=124	=124	=124	=124	=124
4GG#/	.	4r	.	24e/LL	.
!	!	!	!	!LO:TX:t=P:problem:mixed beam	!
.	.	.	.	24ee\	.
.	.	.	.	24gg#\	.
.	.	.	.	24bb\	.
.	.	.	.	24gg#\	.
.	.	.	.	24ee\JJ	.
!	!	!	!	!LO:TX:t=P:problem:mixed beam	!
4r	.	4g# 4B/	.	24e/LL	.
.	.	.	.	24ee\	.
.	.	.	.	24gg#\	.
.	.	.	.	24bb\	.
.	.	.	.	24gg#\	.
.	.	.	.	24ee\JJ	.
4E\	.	4r	.	24eee\LL	.
.	.	.	.	24ee\	.
.	.	.	.	24ff#\	.
.	.	.	.	24gg#\	.
.	.	.	.	24ff#\	.
.	.	.	.	24ee\JJ	.
!	!	!	!	!LO:TX:t=P:problem:mixed beam	!
4r	.	4d 4B/	.	24e/LL	.
.	.	.	.	24ee\	.
.	.	.	.	24gg#\	.
.	.	.	.	24bb\	.
.	.	.	.	24gg#\	.
.	.	.	.	24ee\JJ	.
!	!	!	!	!LO:LB:g=original	!
=125	=125	=125	=125	=125	=125
*	*	*	*	*xywh-#11:440,3709,3424,424	*
!	!	!	!	!	!LO:DY:t= :mod=%s
!	!	!	!	!	!LO:MO:mod=!LO&colon;DY&colon;ed=
!	!	!	!	!	!null
4AA/	p	4r	.	24A/LL	p
.	.	.	.	24a/	.
!	!	!	!	!	!LO:MO:mod=.
.	.	.	.	24cc#/	p
.	.	.	.	24ee/	.
.	.	.	.	24cc#/	.
.	.	.	.	24a/JJ	.
4r	.	4e 4c#/	p	24A/LL	.
.	.	.	.	24a/	.
.	.	.	.	24cc#/	.
.	.	.	.	24ee/	.
.	.	.	.	24cc#/	.
.	.	.	.	24a/JJ	.
4AA/	.	4r	.	24aa\LL	.
.	.	.	.	24a\	.
.	.	.	.	24b\	.
.	.	.	.	24cc#\	.
.	.	.	.	24b\	.
.	.	.	.	24a\JJ	.
4r	.	4e 4c#/	.	24A/LL	.
.	.	.	.	24a/	.
.	.	.	.	24cc#/	.
.	.	.	.	24ee/	.
.	.	.	.	24cc#/	.
.	.	.	.	24a/JJ	.
=126	=126	=126	=126	=126	=126
4GG#/	.	4r	.	24e\LL	.
.	.	.	.	24ee\	.
.	.	.	.	24gg#\	.
.	.	.	.	24bb\	.
.	.	.	.	24gg#\	.
.	.	.	.	24ee\JJ	.
!	!	!	!	!LO:TX:t=P:problem:mixed beam	!
4r	.	4g# 4B/	.	24e/LL	.
.	.	.	.	24ee\	.
.	.	.	.	24gg#\	.
.	.	.	.	24bb\	.
.	.	.	.	24gg#\	.
.	.	.	.	24ee\JJ	.
4EE/	.	4r	.	24eee\LL	.
.	.	.	.	24ee\	.
.	.	.	.	24ff#\	.
.	.	.	.	24gg#\	.
.	.	.	.	24ff#\	.
.	.	.	.	24ee\JJ	.
!	!	!	!	!LO:TX:t=P:problem:mixed beam	!
4r	.	4d 4B/	.	24e/LL	.
.	.	.	.	24ee\	.
.	.	.	.	24gg#\	.
.	.	.	.	24bb\	.
.	.	.	.	24gg#\	.
.	.	.	.	24ee\JJ	.
!	!	!LO:LB:g=original	!	!	!
=127	=127	=127	=127	=127	=127
*	*	*xywh-#45:538,2130,3443,425	*	*	*
!	!LO:DY:b:t=F	!	!	!	!LO:DY:b:t=F
4AA/	f	4r	.	24A/LL	f
.	.	.	.	24a/	.
.	.	.	.	24cc#/	.
.	.	.	.	24ee/	.
.	.	.	.	24cc#/	.
.	.	.	.	24a/JJ	.
!	!	!	!LO:DY:b:t=F	!	!
4r	.	4e 4c#/	f	24A/LL	.
.	.	.	.	24a/	.
.	.	.	.	24cc#/	.
.	.	.	.	24ee/	.
.	.	.	.	24cc#/	.
.	.	.	.	24a/JJ	.
*	*	*	*	*xywh-#11:443,3990,3424,418	*
!	!	!	!	!LO:LB:g=original	!
4D\	.	4r	.	24d\LL	.
!	!	!	!	!LO:TX:t=P:problem:mixed beam	!
.	.	.	.	24dd/	.
.	.	.	.	24ff#\	.
.	.	.	.	24aa\	.
.	.	.	.	24ff#\	.
.	.	.	.	24dd\JJ	.
!	!	!	!	!LO:TX:t=P:problem:mixed beam	!
4r	.	4f# 4A/	.	24d/LL	.
.	.	.	.	24dd\	.
.	.	.	.	24ff#\	.
.	.	.	.	24aa\	.
.	.	.	.	24ff#\	.
.	.	.	.	24dd\JJ	.
=128	=128	=128	=128	=128	=128
4E\	p	4r	.	24e\LL	p
.	.	.	.	24ee\	.
.	.	.	.	24gg#\	.
.	.	.	.	24bb\	.
.	.	.	.	24gg#\	.
.	.	.	.	24ee\JJ	.
4r	.	4g# 4B/	p	24e\LL	.
.	.	.	.	24ee\	.
.	.	.	.	24gg#\	.
.	.	.	.	24bb\	.
.	.	.	.	24gg#\	.
.	.	.	.	24ee\JJ	.
4AA/	.	4r	.	24a\LL	.
.	.	.	.	24aa\	.
.	.	.	.	24ccc#\	.
.	.	.	.	24eee\	.
.	.	.	.	24ccc#\	.
.	.	.	.	24aa\JJ	.
4r	.	4e 4c#/	.	24a\LL	.
.	.	.	.	24aa\	.
.	.	.	.	24ccc#\	.
.	.	.	.	24eee\	.
.	.	.	.	24ccc#\	.
.	.	.	.	24aa\JJ	.
=129	=129	=129	=129	=129	=129
!	!LO:DY:b:t=F	!	!LO:DY:b:t=F	!	!LO:DY:a:t=F
4D\	f	4f# 4A/	f	24d\LL	f
.	.	.	.	24f#\	.
.	.	.	.	24a\	.
.	.	.	.	24dd\	.
.	.	.	.	24ff#\	.
.	.	.	.	24aa\JJ	.
4r	.	4r	.	24ddd\LL	.
.	.	.	.	24aa\	.
.	.	.	.	24ff#\	.
.	.	.	.	24aa\	.
.	.	.	.	24ff#\	.
.	.	.	.	24dd\JJ	.
4D\	.	4f# 4A/	.	24d/LL	.
.	.	.	.	24f#/	.
.	.	.	.	24a/	.
.	.	.	.	24dd/	.
.	.	.	.	24ff#/	.
.	.	.	.	24aa/JJ	.
4D\	.	4f# 4A/	.	24ddd\LL	.
.	.	.	.	24ccc#\	.
.	.	.	.	24bb\	.
.	.	.	.	24aa\	.
.	.	.	.	24gg#\	.
.	.	.	.	24ff#\JJ	.
!	!	!	!	!LO:LB:g=original	!
=130	=130	=130	=130	=130	=130
*	*	*	*	*xywh-#11:434,4262,3390,406	*
4E\	.	4e 4c#/	.	24ee\LL	.
.	.	.	.	24eee\	.
.	.	.	.	24ddd\	.
.	.	.	.	24ccc#\	.
.	.	.	.	24bb\	.
.	.	.	.	24aa\JJ	.
4r	.	4r	.	24gg#\LL	.
.	.	.	.	24ccc#\	.
.	.	.	.	24bb\	.
.	.	.	.	24aa\	.
.	.	.	.	24gg#\	.
.	.	.	.	24ff#\JJ	.
2r	.	2r	.	24ee\LL	.
.	.	.	.	24aa\	.
.	.	.	.	24gg#\	.
.	.	.	.	24ff#\	.
.	.	.	.	24ee\	.
.	.	.	.	24dd\JJ	.
.	.	.	.	24cc#\LL	.
.	.	.	.	24ee\	.
.	.	.	.	24dd\	.
.	.	.	.	24cc#\	.
.	.	.	.	24b\	.
.	.	.	.	24a\JJ	.
=131	=131	=131	=131	=131	=131
8r	.	8a'/L	.	1bT	p
(16E\LL	.	8a'/	.	.	.
16D#X\JJ)	.	.	.	.	.
8E\L	.	8a'/	.	.	.
8E\J	.	8a'/J	.	.	.
*tremolo	*	*	*	*	*
8EE/L	.	8a/L	.	.	.
8EE/	.	16g#/L	.	.	.
.	.	16f#/JJ	.	.	.
8EE/	.	8e/L	.	.	.
8EE/J	.	8d/J	.	.	.
*Xtremolo	*	*	*	*	*
!LO:LB:g=original	!	!	!	!	!
=132	=132	=132	=132	=132	=132
*xywh-#66:608,4589,3443,436	*	*	*	*	*
!	!	!	!	!LO:MO:mod=!LO&colon;TX&colon;a&colon;i&colon;t=Dolce	!
!	!	!	!	!LO:TX:b:i:t=dol	!
1AA	p	(4c#/	.	(16cc#\LL	.
.	.	.	.	16dd\	.
.	.	.	.	16cc#\	.
.	.	.	.	16b\JJ	.
.	.	4e/	.	16cc#\LL	.
.	.	.	.	16a\	.
.	.	.	.	16dd\	.
.	.	.	.	16b\JJ)	.
.	.	4c#/	.	(4ee\	.
.	.	4e/)	.	16dd\LL	.
.	.	.	.	16cc#\	.
.	.	.	.	16b\	.
.	.	.	.	16a\JJ)	.
=133	=133	=133	=133	=133	=133
4.A\	.	4.d/	.	(16ff#\LL	.
.	.	.	.	16gg#\	.
.	.	.	.	16ff#\	.
!	!	!	!	!LO:SIC:s=16ee#X\JJ):v	!
.	.	.	.	(16ee#X\JJ)	.
!	!	!	!	!LO:SIC:s=(16ff#\LL:v	!
.	.	.	.	16ff#\LL	.
.	.	.	.	16aa\	.
8B\	.	8dd\	.	16gg#\	.
.	.	.	.	16bb\JJ)	.
8c#\L	.	4cc#\	.	4aa\	.
8d\	.	.	.	.	.
8e\	.	4r	.	4r	.
8c#\J	.	.	.	.	.
=134	=134	=134	=134	=134	=134
8d\L	.	8r	.	(4.ff#T\	.
8c#\	.	(8a#X/	.	.	.
8d\	.	4b/)	.	.	.
8B\J	.	.	.	8ddd\)	.
8c#\L	.	8r	.	(4.eeT\	.
8B\	.	(8g#/	.	.	.
8c#\	.	4a#/)	.	.	.
8A\J	.	.	.	8ccc#\)	.
!	!	!LO:LB:g=original	!	!	!
=135	=135	=135	=135	=135	=135
*	*	*xywh-#45:545,2451,3393,359	*	*	*
8B\L	.	8r	.	(4.ddT\	.
8A\	.	(8f#/	.	.	.
8B\	.	4g#/)	.	.	.
8G#\J	.	.	.	8bb\)	.
8A\L	.	8r	.	(4.cc#t\	.
8G#\	.	8e/	.	.	.
8A\	.	4e/	.	.	.
8C#\J	.	.	.	8aa\)	.
!	!	!	!	!LO:LB:g=original	!
=136	=136	=136	=136	=136	=136
*	*	*	*	*xywh-#11:428,4550,3393,499	*
4D\	.	4f#/	.	(16b/LL	.
.	.	.	.	16cc#/	.
.	.	.	.	16b/	.
.	.	.	.	16a#X/JJ	.
4DD/	.	4f#/	.	16b/LL	.
.	.	.	.	16f#/	.
.	.	.	.	16d/	.
.	.	.	.	16dd/JJ)	.
4D\	.	4f#/	.	(16b\LL	.
.	.	.	.	16dd\)	.
.	.	.	.	(16dd\	.
.	.	.	.	16ff#\JJ)	.
4r	.	4r	.	(16ee\LL	.
.	.	.	.	16dd\	.
.	.	.	.	16cc#\	.
.	.	.	.	16b\JJ)	.
=137	=137	=137	=137	=137	=137
4E\	.	4a/	.	(16ee\LL	.
.	.	.	.	16aa\	.
.	.	.	.	16gg#\	.
.	.	.	.	16ff#\JJ	.
4r	.	4r	.	16ee\LL	.
.	.	.	.	16dd#X\	.
.	.	.	.	16ddn\)	.
.	.	.	.	16cc#\JJ	.
!LO:TX:t=P:problem:mixed beam	!	!	!	!	!
8E\L	.	8a/L	.	2bT\	.
8E\	.	8a/	.	.	.
8EE/	.	8g#/	.	.	.
8EE/J	.	8g#/J	.	.	.
=138	=138	=138	=138	=138	=138
*	*	*	*	*^	*
*	*	*	*	*	*xywh-#11:428,4550,3393,499	*
1AA	>]	8a/L	.	8a/L	8rgyyyy	.
.	.	8e/	.	24e/L	24c#\LL	.
.	.	.	.	(24f#/	24d\	.
.	.	.	.	24e/JJ	24c#\JJ	.
.	.	8a/	.	8d/L)	8B\L	.
.	.	8e/J	.	(24dd/L	24b\L	.
.	.	.	.	24ee/	24cc#\	.
.	.	.	.	24dd/JJ	24b\JJ	.
.	.	8a/	.	8cc#L 8a\)	2rcyyyy	.
.	.	4e/	.	(8ccc# 8ee\	.	.
.	.	.	.	8bb 8dd\	.	.
.	.	[8ee\	.	8gg#J 8b\)	.	.
*	*	*	*	*v	*v	*
=139	=139	=139	=139	=139	=139
!	!	!	!	!	!LO:MO:mod=!null:null
!	!	!	!	!	!LO:DY:t=rinf
1AA	>]	8ee\L]	.	8aaL 8cc#\	rfz
.	.	8e/	.	(24eeL 24cc#\	.
.	.	.	.	24ff# 24dd\	.
.	.	.	.	24eeJJ 24cc#\	.
.	.	8g#/	.	8ddL 8b\)	.
.	.	8e/J	.	(24ddL 24b\	.
.	.	.	.	24ee 24cc#\	.
.	.	.	.	24ddJJ 24b\	.
.	.	8a/	.	8cc#L 8a\)	.
.	.	4ee\	.	(8cc# 8e\	.
.	.	.	.	8b 8d\)	.
.	.	8e/	.	8g#J 8d`\	.
=140	=140	=140	=140	=140	=140
4.AA/	p	4.e/	p	4.a 4.c#/	p
.	.	.	.	8qqcc#/	.
8E\	.	8e/	.	8b 8e/	.
8A\L	.	8e/L	.	8aL 8c#/	.
.	.	.	.	8qqcc#/	.
8G#\	.	8e 8d/	.	8b 8e/	.
8A\	.	8e 8c#/	.	8a 8c#/	.
.	.	.	.	8qqcc#/	.
8E\J	.	8eJ 8d/	.	8bJ 8e/	.
=141	=141	=141	=141	=141	=141
1AAT<;	>]	1e 1c#;	pp	1a 1c#;	pp
==	==	==	==	==	==
*-	*-	*-	*-	*-	*-
!!!system-decoration: [(s1,s2,s3)]
!!!RDF**kern: > = above
!!!RDF**kern: < = below
!!!filter-modern: sic -sq | shed -e "s/LO:DY:(a|b|rj)/LO:dy:$1/L" | shed -e "s/TX(.*):t=P:/tx$1:t=P:/LG" | modori -m | autostem -r | shed -e "s/yy//" | shed -k -e "s/\(y([^y])/($1/" | shed -e "s/-//B" | shed -k -e "s/[<>]//g" | shed -k -e "s/r[a-gA-G]+/r/D"
!!!ENC: Mateusz Solarz
!!!END: 2022-05-19
!!!EED: Jan Barakat
!!!EEV: 2022-06-15
!!!EED-modern: Antoni Szymański
!!!END-modern: 2022-08-16
!!!ENC-iiif: Mateusz Mrugas
!!!END-iiif: 2022-09-07
